;FLAVOR:Marlin
;TIME:9590
;Filament used: 9.60772m
;Layer height: 0.28
;MINX:35.515
;MINY:60.75
;MINZ:0.28
;MAXX:193.485
;MAXY:176.25
;MAXZ:3.08
;Generated with Cura_SteamEngine 5.4.0
M140 S100
M105
M190 S100
M104 S250
M105
M109 S250
M82 ;absolute extrusion mode
M201 X500.00 Y500.00 Z100.00 E5000.00 ;Setup machine max acceleration
M203 X500.00 Y500.00 Z10.00 E50.00 ;Setup machine max feedrate
M204 P500.00 R1000.00 T500.00 ;Setup Print/Retract/Travel acceleration
M205 X8.00 Y8.00 Z0.40 E5.00 ;Setup Jerk
M220 S100 ;Reset Feedrate
M221 S100 ;Reset Flowrate

G28 ;Home

G92 E0 ;Reset Extruder
G1 Z2.0 F3000 ;Move Z Axis up
G1 X10.1 Y20 Z0.28 F5000.0 ;Move to start position
G1 X10.1 Y200.0 Z0.28 F1500.0 E15 ;Draw the first line
G1 X10.4 Y200.0 Z0.28 F5000.0 ;Move to side a little
G1 X10.4 Y20 Z0.28 F1500.0 E30 ;Draw the second line
G92 E0 ;Reset Extruder
G1 Z2.0 F3000 ;Move Z Axis up

G92 E0
G92 E0
G1 F1500 E-6.5
;LAYER_COUNT:11
;LAYER:0
M107
G0 F6000 X41.891 Y62.423 Z0.28
;TYPE:SKIRT
G1 F1500 E0
G1 F1200 X43.934 Y61.482 E0.13092
G1 X46.026 Y60.924 E0.25694
G1 X48.266 Y60.75 E0.38772
G1 X180.773 Y60.751 E8.10032
G1 X182.99 Y60.922 E8.22974
G1 X185.173 Y61.525 E8.36156
G1 X187.091 Y62.415 E8.48463
G1 X189.026 Y63.773 E8.62223
G1 X190.46 Y65.207 E8.74027
G1 X191.821 Y67.145 E8.87811
G1 X192.737 Y69.115 E9.00456
G1 X193.326 Y71.338 E9.13842
G1 X193.485 Y73.499 E9.26454
G1 X193.454 Y164.184 E14.54288
G1 X193.318 Y165.69 E14.63089
G1 X192.736 Y167.886 E14.76312
G1 X191.826 Y169.845 E14.88885
G1 X190.458 Y171.795 E15.02749
G1 X189.003 Y173.25 E15.14726
G1 X187.109 Y174.577 E15.28187
G1 X185.066 Y175.518 E15.41279
G1 X182.974 Y176.076 E15.53881
G1 X180.734 Y176.25 E15.66958
G1 X47.558 Y176.219 E23.42113
G1 X46 Y176.076 E23.51219
G1 X43.778 Y175.454 E23.64649
G1 X41.923 Y174.593 E23.76553
G1 X39.97 Y173.223 E23.90438
G1 X38.542 Y171.795 E24.02193
G1 X37.177 Y169.849 E24.16028
G1 X36.263 Y167.882 E24.28653
G1 X35.674 Y165.664 E24.4201
G1 X35.515 Y163.501 E24.54634
G1 X35.546 Y72.816 E29.82468
G1 X35.682 Y71.31 E29.9127
G1 X36.264 Y69.114 E30.04493
G1 X37.174 Y67.155 E30.17065
G1 X38.542 Y65.205 E30.3093
G1 X39.997 Y63.75 E30.42907
G1 X41.891 Y62.423 E30.56367
G0 F6000 X42.144 Y62.857
G1 F1200 X44.104 Y61.954 E30.68928
G1 X46.113 Y61.418 E30.8103
G1 X48.266 Y61.25 E30.936
G1 X180.734 Y61.25 E38.64633
G1 X182.906 Y61.418 E38.77313
G1 X185.002 Y61.996 E38.89968
G1 X186.841 Y62.85 E39.0177
G1 X188.699 Y64.154 E39.14982
G1 X190.079 Y65.534 E39.26342
G1 X191.386 Y67.395 E39.39578
G1 X192.265 Y69.286 E39.51716
G1 X192.83 Y71.417 E39.64548
G1 X192.985 Y73.499 E39.767
G1 X192.956 Y164.139 E45.04272
G1 X192.824 Y165.605 E45.12839
G1 X192.264 Y167.715 E45.25546
G1 X191.391 Y169.595 E45.37611
G1 X190.077 Y171.468 E45.50928
G1 X188.679 Y172.866 E45.62435
G1 X186.856 Y174.143 E45.75391
G1 X184.896 Y175.046 E45.87951
G1 X182.887 Y175.582 E46.00054
G1 X180.734 Y175.75 E46.12623
G1 X47.604 Y175.721 E53.8751
G1 X46.09 Y175.582 E53.96359
G1 X43.989 Y175 E54.09049
G1 X42.169 Y174.155 E54.20728
G1 X40.297 Y172.842 E54.34037
G1 X38.923 Y171.468 E54.45347
G1 X37.612 Y169.599 E54.58635
G1 X36.735 Y167.711 E54.70752
G1 X36.17 Y165.584 E54.83561
G1 X36.015 Y163.501 E54.95719
G1 X36.044 Y72.861 E60.23291
G1 X36.176 Y71.395 E60.31859
G1 X36.736 Y69.285 E60.44565
G1 X37.609 Y67.405 E60.5663
G1 X38.923 Y65.532 E60.69947
G1 X40.321 Y64.134 E60.81455
G1 X42.144 Y62.857 E60.9441
G0 F6000 X42.397 Y63.291
G1 F1200 X44.274 Y62.426 E61.06439
G1 X46.2 Y61.912 E61.18042
G1 X48.266 Y61.75 E61.30104
G1 X180.734 Y61.75 E69.01137
G1 X182.817 Y61.912 E69.13298
G1 X184.828 Y62.467 E69.25441
G1 X186.593 Y63.286 E69.36766
G1 X188.372 Y64.535 E69.49418
G1 X189.698 Y65.861 E69.60333
G1 X190.951 Y67.645 E69.73022
G1 X191.793 Y69.457 E69.84652
G1 X192.334 Y71.496 E69.9693
G1 X192.485 Y73.499 E70.08622
G1 X192.458 Y164.094 E75.35932
G1 X192.33 Y165.52 E75.44266
G1 X191.793 Y167.541 E75.56437
G1 X190.955 Y169.347 E75.68026
G1 X189.696 Y171.141 E75.80782
G1 X188.355 Y172.482 E75.91821
G1 X186.603 Y173.709 E76.04271
G1 X184.726 Y174.574 E76.163
G1 X182.8 Y175.088 E76.27903
G1 X180.734 Y175.25 E76.39965
G1 X47.65 Y175.223 E84.14583
G1 X46.18 Y175.088 E84.23176
G1 X44.161 Y174.529 E84.35369
G1 X42.419 Y173.72 E84.46549
G1 X40.624 Y172.461 E84.5931
G1 X39.304 Y171.141 E84.70176
G1 X38.047 Y169.349 E84.82916
G1 X37.207 Y167.54 E84.94526
G1 X36.666 Y165.505 E85.06782
G1 X36.515 Y163.501 E85.18479
G1 X36.542 Y72.906 E90.45789
G1 X36.67 Y71.48 E90.54123
G1 X37.207 Y69.459 E90.66294
G1 X38.045 Y67.653 E90.77883
G1 X39.304 Y65.859 E90.9064
G1 X40.645 Y64.518 E91.01678
G1 X42.397 Y63.291 E91.14128
G0 F6000 X42.646 Y63.726
G1 F1200 X44.444 Y62.898 E91.25649
G1 X46.287 Y62.406 E91.36752
G1 X48.266 Y62.25 E91.48307
G1 X180.734 Y62.25 E99.1934
G1 X182.728 Y62.406 E99.30981
G1 X184.657 Y62.938 E99.42628
G1 X186.343 Y63.721 E99.53448
G1 X188.045 Y64.916 E99.65553
G1 X189.317 Y66.188 E99.76023
G1 X190.516 Y67.895 E99.88165
G1 X191.321 Y69.628 E99.99287
G1 X191.838 Y71.575 E100.11012
G1 X191.985 Y73.499 E100.22244
G1 X191.96 Y164.049 E105.49292
G1 X191.836 Y165.435 E105.57392
G1 X191.323 Y167.365 E105.69015
G1 X190.517 Y169.101 E105.80156
G1 X189.315 Y170.814 E105.92336
G1 X188.028 Y172.101 E106.0293
G1 X186.354 Y173.274 E106.14827
G1 X184.556 Y174.102 E106.26349
G1 X182.713 Y174.594 E106.37452
G1 X180.734 Y174.75 E106.49007
G1 X47.696 Y174.725 E114.23357
G1 X46.27 Y174.594 E114.31692
G1 X44.335 Y174.058 E114.43379
G1 X42.667 Y173.284 E114.54082
G1 X40.951 Y172.08 E114.66283
G1 X39.685 Y170.814 E114.76705
G1 X38.483 Y169.101 E114.88885
G1 X37.678 Y167.366 E115.00017
G1 X37.162 Y165.425 E115.11708
G1 X37.015 Y163.501 E115.22939
G1 X37.04 Y72.951 E120.49987
G1 X37.164 Y71.565 E120.58087
G1 X37.677 Y69.635 E120.6971
G1 X38.483 Y67.899 E120.80851
G1 X39.685 Y66.186 E120.93031
G1 X40.972 Y64.899 E121.03625
G1 X42.646 Y63.726 E121.15523
G0 F6000 X42.899 Y64.16
G1 F1200 X44.614 Y63.37 E121.26513
G1 X46.374 Y62.9 E121.37116
G1 X48.266 Y62.75 E121.48163
G1 X180.734 Y62.75 E129.19196
G1 X182.639 Y62.9 E129.30319
G1 X184.483 Y63.409 E129.41453
G1 X186.095 Y64.157 E129.51797
G1 X187.718 Y65.297 E129.63341
G1 X188.936 Y66.515 E129.73367
G1 X190.081 Y68.145 E129.84961
G1 X190.849 Y69.799 E129.95575
G1 X191.342 Y71.654 E130.06747
G1 X191.485 Y73.499 E130.17518
G1 X191.462 Y164.005 E135.44311
G1 X191.342 Y165.348 E135.52159
G1 X190.852 Y167.19 E135.63253
G1 X190.079 Y168.855 E135.73938
G1 X188.934 Y170.487 E135.85541
G1 X187.704 Y171.717 E135.95666
G1 X186.101 Y172.84 E136.07058
G1 X184.386 Y173.63 E136.18049
G1 X182.626 Y174.1 E136.28652
G1 X180.734 Y174.25 E136.39699
G1 X47.742 Y174.227 E144.13782
G1 X46.36 Y174.1 E144.2186
G1 X44.506 Y173.587 E144.33056
G1 X42.917 Y172.849 E144.43254
G1 X41.278 Y171.699 E144.54908
G1 X40.066 Y170.487 E144.64884
G1 X38.921 Y168.855 E144.76488
G1 X38.148 Y167.19 E144.87173
G1 X37.658 Y165.346 E144.98278
G1 X37.515 Y163.501 E145.09049
G1 X37.538 Y72.995 E150.35842
G1 X37.658 Y71.652 E150.4369
G1 X38.148 Y69.81 E150.54784
G1 X38.921 Y68.145 E150.65469
G1 X40.066 Y66.513 E150.77073
G1 X41.296 Y65.283 E150.87197
G1 X42.899 Y64.16 E150.98589
G0 F6000 X43.152 Y64.594
G1 F1200 X44.784 Y63.842 E151.09048
G1 X46.461 Y63.394 E151.19152
G1 X48.266 Y63.25 E151.29691
G1 X180.734 Y63.25 E159.00724
G1 X182.55 Y63.394 E159.11328
G1 X184.312 Y63.88 E159.21966
G1 X185.845 Y64.592 E159.31805
G1 X187.391 Y65.678 E159.42801
G1 X188.555 Y66.842 E159.52383
G1 X189.643 Y68.391 E159.63401
G1 X190.378 Y69.974 E159.73559
G1 X190.848 Y71.74 E159.84196
G1 X190.985 Y73.499 E159.94465
G1 X190.964 Y163.961 E165.21002
G1 X190.848 Y165.261 E165.28598
G1 X190.381 Y167.015 E165.39163
G1 X189.641 Y168.609 E165.49392
G1 X188.553 Y170.16 E165.60419
G1 X187.38 Y171.333 E165.70075
G1 X185.848 Y172.406 E165.80962
G1 X184.216 Y173.158 E165.91421
G1 X182.539 Y173.606 E166.01524
G1 X180.734 Y173.75 E166.12063
G1 X47.788 Y173.729 E173.85879
G1 X46.45 Y173.606 E173.93699
G1 X44.68 Y173.116 E174.04389
G1 X43.165 Y172.413 E174.1411
G1 X41.605 Y171.318 E174.25204
G1 X40.447 Y170.16 E174.34736
G1 X39.359 Y168.609 E174.45763
G1 X38.619 Y167.015 E174.55992
G1 X38.152 Y165.26 E174.66563
G1 X38.015 Y163.501 E174.76832
G1 X38.036 Y73.039 E180.03368
G1 X38.152 Y71.739 E180.10965
G1 X38.619 Y69.985 E180.2153
G1 X39.359 Y68.391 E180.31759
G1 X40.447 Y66.84 E180.42786
G1 X41.62 Y65.667 E180.52442
G1 X43.152 Y64.594 E180.63328
G0 F6000 X43.405 Y65.028
G1 F1200 X44.954 Y64.314 E180.73256
G1 X46.548 Y63.888 E180.8286
G1 X48.266 Y63.75 E180.92892
G1 X180.734 Y63.75 E188.63925
G1 X182.461 Y63.888 E188.74009
G1 X184.141 Y64.351 E188.84152
G1 X185.592 Y65.025 E188.93464
G1 X187.066 Y66.061 E189.03951
G1 X188.174 Y67.169 E189.13071
G1 X189.205 Y68.637 E189.23512
G1 X189.907 Y70.149 E189.33215
G1 X190.354 Y71.827 E189.43323
G1 X190.485 Y73.499 E189.53084
G1 X190.466 Y163.917 E194.79365
G1 X190.354 Y165.174 E194.8671
G1 X189.909 Y166.845 E194.96775
G1 X189.206 Y168.359 E195.06491
G1 X188.172 Y169.833 E195.16971
G1 X187.056 Y170.949 E195.26157
G1 X185.595 Y171.972 E195.36538
G1 X184.046 Y172.686 E195.46466
G1 X182.452 Y173.112 E195.5607
G1 X180.734 Y173.25 E195.66101
G1 X47.834 Y173.231 E203.39649
G1 X46.54 Y173.112 E203.47213
G1 X44.851 Y172.645 E203.57412
G1 X43.415 Y171.978 E203.66628
G1 X41.932 Y170.937 E203.77174
G1 X40.828 Y169.833 E203.86262
G1 X39.794 Y168.359 E203.96742
G1 X39.091 Y166.845 E204.06458
G1 X38.646 Y165.173 E204.16528
G1 X38.515 Y163.501 E204.2629
G1 X38.534 Y73.083 E209.5257
G1 X38.646 Y71.826 E209.59916
G1 X39.091 Y70.155 E209.69981
G1 X39.794 Y68.641 E209.79697
G1 X40.828 Y67.167 E209.90177
G1 X41.944 Y66.051 E209.99363
G1 X43.405 Y65.028 E210.09744
G0 F6000 X43.654 Y65.463
G1 F1200 X45.124 Y64.786 E210.19164
G1 X46.635 Y64.382 E210.28268
G1 X48.266 Y64.25 E210.37792
G1 X180.734 Y64.25 E218.08825
G1 X182.375 Y64.382 E218.18408
G1 X183.93 Y64.805 E218.27787
G1 X185.343 Y65.461 E218.36855
G1 X186.741 Y66.444 E218.46802
G1 X187.793 Y67.496 E218.55462
G1 X188.77 Y68.887 E218.65356
G1 X189.435 Y70.319 E218.74545
G1 X189.86 Y71.914 E218.84153
G1 X189.985 Y73.499 E218.93407
G1 X189.968 Y163.873 E224.19431
G1 X189.86 Y165.087 E224.26525
G1 X189.437 Y166.675 E224.36091
G1 X188.771 Y168.109 E224.45294
G1 X187.791 Y169.506 E224.55226
G1 X186.729 Y170.568 E224.63968
G1 X185.346 Y171.537 E224.73797
G1 X183.876 Y172.214 E224.83217
G1 X182.365 Y172.618 E224.92321
G1 X180.734 Y172.75 E225.01845
G1 X47.88 Y172.733 E232.75125
G1 X46.63 Y172.618 E232.82431
G1 X45.025 Y172.174 E232.92124
G1 X43.663 Y171.542 E233.00863
G1 X42.259 Y170.556 E233.10849
G1 X41.209 Y169.506 E233.19492
G1 X40.229 Y168.109 E233.29425
G1 X39.563 Y166.675 E233.38628
G1 X39.14 Y165.086 E233.48199
G1 X39.015 Y163.501 E233.57453
G1 X39.032 Y73.127 E238.83477
G1 X39.14 Y71.913 E238.90571
G1 X39.563 Y70.325 E239.00136
G1 X40.229 Y68.891 E239.09339
G1 X41.209 Y67.494 E239.19271
G1 X42.271 Y66.432 E239.28013
G1 X43.654 Y65.463 E239.37842
G0 F6000 X43.907 Y65.897
G1 F1200 X45.294 Y65.258 E239.46731
G1 X46.722 Y64.876 E239.55335
G1 X48.266 Y64.75 E239.64352
G1 X180.734 Y64.75 E247.35385
G1 X182.289 Y64.876 E247.44465
G1 X183.757 Y65.275 E247.5332
G1 X185.092 Y65.896 E247.6189
G1 X186.414 Y66.825 E247.71295
G1 X187.412 Y67.823 E247.7951
G1 X188.335 Y69.137 E247.88856
G1 X188.963 Y70.489 E247.97533
G1 X189.366 Y72 E248.06635
G1 X189.485 Y73.499 E248.15387
G1 X189.47 Y163.829 E253.41155
G1 X189.366 Y165 E253.47998
G1 X188.965 Y166.505 E253.57064
G1 X188.336 Y167.859 E253.65753
G1 X187.41 Y169.179 E253.75139
G1 X186.405 Y170.184 E253.83411
G1 X185.093 Y171.103 E253.92735
G1 X183.706 Y171.742 E254.01623
G1 X182.278 Y172.124 E254.10227
G1 X180.734 Y172.25 E254.19244
G1 X47.926 Y172.235 E261.92256
G1 X46.72 Y172.124 E261.99305
G1 X45.196 Y171.703 E262.08508
G1 X43.913 Y171.107 E262.16742
G1 X42.586 Y170.175 E262.26181
G1 X41.59 Y169.179 E262.34379
G1 X40.664 Y167.859 E262.43764
G1 X40.035 Y166.505 E262.52454
G1 X39.634 Y165 E262.6152
G1 X39.515 Y163.501 E262.70272
G1 X39.53 Y73.171 E267.9604
G1 X39.634 Y72 E268.02883
G1 X40.035 Y70.495 E268.11948
G1 X40.664 Y69.141 E268.20638
G1 X41.59 Y67.821 E268.30023
G1 X42.595 Y66.816 E268.38296
G1 X43.907 Y65.897 E268.47619
G0 F6000 X44.16 Y66.331
G1 F1200 X45.464 Y65.73 E268.55977
G1 X46.809 Y65.37 E268.64081
G1 X48.266 Y65.25 E268.7259
G1 X180.734 Y65.25 E276.43623
G1 X182.204 Y65.37 E276.52208
G1 X183.583 Y65.745 E276.60526
G1 X184.841 Y66.331 E276.68603
G1 X186.087 Y67.206 E276.77465
G1 X187.031 Y68.15 E276.85236
G1 X187.9 Y69.387 E276.94035
G1 X188.491 Y70.659 E277.02199
G1 X188.872 Y72.087 E277.10801
G1 X188.985 Y73.499 E277.19046
G1 X188.972 Y163.785 E282.44558
G1 X188.872 Y164.913 E282.51149
G1 X188.493 Y166.335 E282.59715
G1 X187.901 Y167.609 E282.67892
G1 X187.029 Y168.852 E282.7673
G1 X186.081 Y169.8 E282.84533
G1 X184.84 Y170.669 E282.93351
G1 X183.536 Y171.27 E283.01708
G1 X182.191 Y171.63 E283.09813
G1 X180.734 Y171.75 E283.18322
G1 X47.972 Y171.737 E290.91066
G1 X46.81 Y171.63 E290.97858
G1 X45.37 Y171.232 E291.06554
G1 X44.161 Y170.671 E291.14312
G1 X42.913 Y169.794 E291.2319
G1 X41.971 Y168.852 E291.30944
G1 X41.099 Y167.609 E291.39782
G1 X40.507 Y166.335 E291.47958
G1 X40.128 Y164.913 E291.56524
G1 X40.015 Y163.501 E291.64769
G1 X40.028 Y73.215 E296.90281
G1 X40.128 Y72.087 E296.96872
G1 X40.507 Y70.665 E297.05438
G1 X41.099 Y69.391 E297.13615
G1 X41.971 Y68.148 E297.22452
G1 X42.919 Y67.2 E297.30256
G1 X44.16 Y66.331 E297.39074
G0 F6000 X44.413 Y66.765
G1 F1200 X45.634 Y66.202 E297.469
G1 X46.896 Y65.864 E297.54504
G1 X48.266 Y65.75 E297.62506
G1 X180.734 Y65.75 E305.33539
G1 X182.118 Y65.864 E305.41622
G1 X183.409 Y66.215 E305.49409
G1 X184.59 Y66.766 E305.56994
G1 X185.76 Y67.587 E305.65314
G1 X186.65 Y68.477 E305.7264
G1 X187.465 Y69.637 E305.80891
G1 X188.019 Y70.829 E305.88542
G1 X188.378 Y72.174 E305.96645
G1 X188.485 Y73.499 E306.04382
G1 X188.474 Y163.741 E311.29638
G1 X188.378 Y164.826 E311.35978
G1 X188.021 Y166.165 E311.44044
G1 X187.466 Y167.359 E311.51708
G1 X186.648 Y168.525 E311.59998
G1 X185.757 Y169.416 E311.67332
G1 X184.587 Y170.235 E311.75645
G1 X183.366 Y170.798 E311.83471
G1 X182.104 Y171.136 E311.91075
G1 X180.734 Y171.25 E311.99077
G1 X48.018 Y171.239 E319.71553
G1 X46.897 Y171.136 E319.78106
G1 X45.581 Y170.778 E319.86044
G1 X44.407 Y170.233 E319.93578
G1 X43.24 Y169.413 E320.01879
G1 X42.352 Y168.525 E320.09189
G1 X41.534 Y167.359 E320.17479
G1 X40.979 Y166.165 E320.25143
G1 X40.622 Y164.826 E320.33209
G1 X40.515 Y163.501 E320.40946
G1 X40.526 Y73.259 E325.66202
G1 X40.622 Y72.174 E325.72542
G1 X40.979 Y70.835 E325.80608
G1 X41.534 Y69.641 E325.88272
G1 X42.352 Y68.475 E325.96562
G1 X43.243 Y67.584 E326.03896
G1 X44.413 Y66.765 E326.12209
G0 F6000 X44.664 Y67.2
G1 F1200 X45.806 Y66.673 E326.19529
G1 X46.983 Y66.358 E326.26621
G1 X48.266 Y66.25 E326.34115
G1 X180.734 Y66.25 E334.05149
G1 X182.027 Y66.358 E334.12701
G1 X183.238 Y66.687 E334.20005
G1 X184.341 Y67.202 E334.2709
G1 X185.433 Y67.968 E334.34854
G1 X186.267 Y68.802 E334.41719
G1 X187.032 Y69.89 E334.4946
G1 X187.547 Y70.999 E334.56578
G1 X187.884 Y72.261 E334.6418
G1 X187.985 Y73.499 E334.7141
G1 X187.976 Y163.697 E339.9641
G1 X187.884 Y164.739 E340.02498
G1 X187.549 Y165.995 E340.10064
G1 X187.031 Y167.109 E340.17215
G1 X186.267 Y168.198 E340.24958
G1 X185.433 Y169.032 E340.31823
G1 X184.336 Y169.8 E340.39618
G1 X183.194 Y170.327 E340.46938
G1 X182.017 Y170.642 E340.5403
G1 X180.734 Y170.75 E340.61524
G1 X48.064 Y170.741 E348.33733
G1 X46.982 Y170.642 E348.40057
G1 X45.754 Y170.308 E348.47464
G1 X44.657 Y169.798 E348.54506
G1 X43.567 Y169.032 E348.6226
G1 X42.733 Y168.198 E348.69125
G1 X41.969 Y167.109 E348.76868
G1 X41.451 Y165.995 E348.84019
G1 X41.116 Y164.739 E348.91585
G1 X41.015 Y163.501 E348.98815
G1 X41.024 Y73.303 E354.23814
G1 X41.116 Y72.261 E354.29903
G1 X41.451 Y71.005 E354.37469
G1 X41.969 Y69.891 E354.4462
G1 X42.733 Y68.802 E354.52363
G1 X43.567 Y67.968 E354.59228
G1 X44.664 Y67.2 E354.67022
G0 F6000 X44.913 Y67.635
G1 F1200 X45.976 Y67.145 E354.73835
G1 X47.07 Y66.852 E354.80427
