;FLAVOR:Marlin
;TIME:24833
;Filament used: 23.2335m
;Layer height: 0.28
;MINX:26.812
;MINY:56.021
;MINZ:0.28
;MAXX:208.188
;MAXY:178.979
;MAXZ:12.88
;Generated with Cura_SteamEngine 5.4.0
M140 S60
M105
M190 S60
M104 S225
M105
M109 S225
M82 ;absolute extrusion mode
M201 X500.00 Y500.00 Z100.00 E5000.00 ;Setup machine max acceleration
M203 X500.00 Y500.00 Z10.00 E50.00 ;Setup machine max feedrate
M204 P500.00 R1000.00 T500.00 ;Setup Print/Retract/Travel acceleration
M205 X8.00 Y8.00 Z0.40 E5.00 ;Setup Jerk
M220 S100 ;Reset Feedrate
M221 S100 ;Reset Flowrate

G28 ;Home

G92 E0 ;Reset Extruder
G1 Z2.0 F3000 ;Move Z Axis up
G1 X10.1 Y20 Z0.28 F5000.0 ;Move to start position
G1 X10.1 Y200.0 Z0.28 F1500.0 E15 ;Draw the first line
G1 X10.4 Y200.0 Z0.28 F5000.0 ;Move to side a little
G1 X10.4 Y20 Z0.28 F1500.0 E30 ;Draw the second line
G92 E0 ;Reset Extruder
G1 Z2.0 F3000 ;Move Z Axis up

G92 E0
G92 E0
G1 F1500 E-6.5
;LAYER_COUNT:48
;LAYER:0
M107
G0 F6000 X33.754 Y57.956 Z0.28
;TYPE:SKIRT
G1 F1500 E0
G1 F1200 X34.576 Y57.52 E0.04333
G1 X35.08 Y57.281 E0.0693
G1 X35.978 Y56.902 E0.11469
G1 X36.848 Y56.621 E0.15726
G1 X37.389 Y56.473 E0.18337
G1 X38.337 Y56.259 E0.22863
G1 X39.246 Y56.134 E0.27135
G1 X39.792 Y56.083 E0.29689
G1 X40.637 Y56.036 E0.3363
G1 X41.451 Y56.024 E0.3742
G1 X193.473 Y56.021 E7.45298
G1 X194.443 Y56.035 E7.49816
G1 X195.574 Y56.113 E7.55095
G1 X196.062 Y56.172 E7.57383
G1 X196.953 Y56.32 E7.61589
G1 X197.554 Y56.465 E7.64468
G1 X198.053 Y56.6 E7.66875
G1 X198.976 Y56.895 E7.71387
G1 X199.73 Y57.205 E7.75183
G1 X200.266 Y57.451 E7.77929
G1 X201.132 Y57.896 E7.82463
G1 X201.924 Y58.394 E7.86819
G1 X202.371 Y58.705 E7.89355
G1 X203.139 Y59.295 E7.93865
G1 X203.762 Y59.859 E7.97778
G1 X204.157 Y60.247 E8.00356
G1 X204.82 Y60.96 E8.04889
G1 X205.395 Y61.695 E8.09235
G1 X205.739 Y62.177 E8.11992
G1 X206.23 Y62.934 E8.16194
G1 X206.702 Y63.823 E8.2088
G1 X206.922 Y64.286 E8.23267
G1 X207.283 Y65.148 E8.27619
G1 X207.54 Y65.935 E8.31474
G1 X207.682 Y66.429 E8.33867
G1 X207.905 Y67.367 E8.38357
G1 X208.013 Y68.043 E8.41545
G1 X208.096 Y68.707 E8.44661
G1 X208.177 Y69.846 E8.49978
G1 X208.188 Y70.53 E8.53163
G1 X208.186 Y164.401 E12.90266
G1 X208.177 Y165.095 E12.93497
G1 X208.141 Y165.823 E12.96892
G1 X208.092 Y166.403 E12.99602
G1 X207.966 Y167.366 E13.04124
G1 X207.781 Y168.222 E13.08202
G1 X207.643 Y168.75 E13.10743
G1 X207.356 Y169.679 E13.15271
G1 X207.02 Y170.505 E13.19423
G1 X206.787 Y171.018 E13.22047
G1 X206.343 Y171.884 E13.26578
G1 X205.844 Y172.679 E13.30949
G1 X205.518 Y173.152 E13.33624
G1 X204.951 Y173.899 E13.37991
G1 X204.312 Y174.605 E13.42425
G1 X203.929 Y174.992 E13.4496
G1 X203.213 Y175.653 E13.49498
G1 X202.495 Y176.21 E13.53729
G1 X202.034 Y176.537 E13.56361
G1 X201.246 Y177.044 E13.60724
G1 X200.417 Y177.484 E13.65094
G1 X199.91 Y177.725 E13.67708
G1 X199.014 Y178.1 E13.72231
G1 X198.189 Y178.367 E13.76269
G1 X197.617 Y178.525 E13.79032
G1 X196.668 Y178.74 E13.83563
G1 X195.754 Y178.866 E13.87859
G1 X195.208 Y178.917 E13.90412
G1 X194.363 Y178.964 E13.94353
G1 X193.549 Y178.976 E13.98144
G1 X41.527 Y178.979 E21.06022
G1 X40.556 Y178.965 E21.10544
G1 X39.411 Y178.886 E21.15888
G1 X38.929 Y178.825 E21.1815
G1 X37.985 Y178.665 E21.22609
G1 X37.476 Y178.543 E21.25046
G1 X36.976 Y178.41 E21.27455
G1 X36.115 Y178.139 E21.31658
G1 X35.27 Y177.796 E21.35905
G1 X34.748 Y177.557 E21.38578
G1 X33.867 Y177.104 E21.43191
G1 X33.076 Y176.606 E21.47543
G1 X32.629 Y176.295 E21.50079
G1 X31.861 Y175.705 E21.54588
G1 X31.238 Y175.141 E21.58502
G1 X30.843 Y174.753 E21.6108
G1 X30.18 Y174.041 E21.6561
G1 X29.62 Y173.325 E21.69843
G1 X29.263 Y172.825 E21.72703
G1 X28.735 Y172.006 E21.77241
G1 X28.288 Y171.157 E21.81709
G1 X28.07 Y170.694 E21.84091
G1 X27.71 Y169.832 E21.88441
G1 X27.456 Y169.06 E21.92226
G1 X27.321 Y168.586 E21.94521
G1 X27.095 Y167.63 E21.99095
G1 X26.987 Y166.953 E22.02287
G1 X26.904 Y166.287 E22.05412
G1 X26.823 Y165.149 E22.10725
G1 X26.812 Y164.46 E22.13933
G1 X26.814 Y70.599 E26.50989
G1 X26.823 Y69.904 E26.54226
G1 X26.859 Y69.174 E26.57629
G1 X26.908 Y68.595 E26.60335
G1 X27.034 Y67.631 E26.64862
G1 X27.219 Y66.778 E26.68926
G1 X27.357 Y66.25 E26.71467
G1 X27.644 Y65.321 E26.75995
G1 X27.98 Y64.495 E26.80147
G1 X28.213 Y63.982 E26.82771
G1 X28.657 Y63.116 E26.87302
G1 X29.156 Y62.321 E26.91673
G1 X29.482 Y61.848 E26.94348
G1 X30.049 Y61.101 E26.98715
G1 X30.688 Y60.395 E27.03149
G1 X31.071 Y60.008 E27.05684
G1 X31.787 Y59.347 E27.10222
G1 X32.505 Y58.79 E27.14453
G1 X32.966 Y58.463 E27.17085
G1 X33.754 Y57.956 E27.21448
G0 F6000 X33.942 Y58.309
G1 F1200 X34.748 Y57.881 E27.25697
G1 X35.236 Y57.649 E27.28213
G1 X36.101 Y57.283 E27.32587
G1 X36.954 Y57.007 E27.36762
G1 X37.478 Y56.863 E27.39292
G1 X38.392 Y56.655 E27.43657
G1 X39.283 Y56.532 E27.47845
G1 X39.814 Y56.482 E27.50328
G1 X40.643 Y56.436 E27.54195
G1 X41.451 Y56.424 E27.57957
G1 X193.468 Y56.421 E34.65812
G1 X194.416 Y56.434 E34.70227
G1 X195.526 Y56.51 E34.75408
G1 X195.996 Y56.567 E34.77612
G1 X196.887 Y56.715 E34.81818
G1 X197.45 Y56.851 E34.84515
G1 X197.932 Y56.981 E34.86839
G1 X198.824 Y57.265 E34.91198
G1 X199.564 Y57.569 E34.94924
G1 X200.084 Y57.807 E34.97586
G1 X200.919 Y58.235 E35.01956
G1 X201.711 Y58.733 E35.06312
G1 X202.128 Y59.023 E35.08677
G1 X202.871 Y59.592 E35.13035
G1 X203.482 Y60.144 E35.16869
G1 X203.865 Y60.52 E35.19368
G1 X204.505 Y61.206 E35.23737
G1 X205.069 Y61.927 E35.27999
G1 X205.403 Y62.395 E35.30676
G1 X205.894 Y63.152 E35.34878
G1 X206.341 Y63.995 E35.39321
G1 X206.553 Y64.441 E35.4162
G1 X206.903 Y65.273 E35.45823
G1 X207.156 Y66.045 E35.49606
G1 X207.293 Y66.522 E35.51917
G1 X207.51 Y67.43 E35.56264
G1 X207.616 Y68.093 E35.59391
G1 X207.697 Y68.736 E35.62408
G1 X207.777 Y69.852 E35.67618
G1 X207.788 Y70.53 E35.70776
G1 X207.786 Y164.396 E40.07855
G1 X207.777 Y165.075 E40.11017
G1 X207.742 Y165.79 E40.1435
G1 X207.695 Y166.352 E40.16977
G1 X207.575 Y167.282 E40.21343
G1 X207.394 Y168.121 E40.25339
G1 X207.261 Y168.632 E40.27798
G1 X206.985 Y169.529 E40.32168
G1 X206.656 Y170.34 E40.36244
G1 X206.431 Y170.836 E40.3878
G1 X206.004 Y171.672 E40.43151
G1 X205.515 Y172.452 E40.47438
G1 X205.199 Y172.91 E40.50029
G1 X204.632 Y173.657 E40.54395
G1 X204.028 Y174.324 E40.58585
G1 X203.657 Y174.699 E40.61042
G1 X202.968 Y175.337 E40.65414
G1 X202.264 Y175.884 E40.69566
G1 X201.817 Y176.201 E40.72117
G1 X201.058 Y176.691 E40.76324
G1 X200.245 Y177.123 E40.80611
G1 X199.755 Y177.356 E40.83137
G1 X198.891 Y177.719 E40.87501
G1 X198.066 Y177.986 E40.91539
G1 X197.528 Y178.135 E40.94138
G1 X196.613 Y178.344 E40.98509
G1 X195.717 Y178.468 E41.02721
G1 X195.186 Y178.518 E41.05204
G1 X194.357 Y178.564 E41.0907
G1 X193.549 Y178.576 E41.12833
G1 X41.532 Y178.579 E48.20688
G1 X40.583 Y178.566 E48.25107
G1 X39.461 Y178.489 E48.30344
G1 X38.996 Y178.431 E48.32526
G1 X38.078 Y178.276 E48.36861
G1 X37.579 Y178.157 E48.3925
G1 X37.096 Y178.028 E48.41578
G1 X36.235 Y177.757 E48.45781
G1 X35.437 Y177.432 E48.49793
G1 X34.915 Y177.193 E48.52466
G1 X34.08 Y176.765 E48.56835
G1 X33.289 Y176.267 E48.61188
G1 X32.872 Y175.977 E48.63553
G1 X32.129 Y175.408 E48.67911
G1 X31.518 Y174.856 E48.71745
G1 X31.135 Y174.48 E48.74244
G1 X30.495 Y173.794 E48.78613
G1 X29.945 Y173.092 E48.82765
G1 X29.599 Y172.608 E48.85535
G1 X29.089 Y171.819 E48.8991
G1 X28.65 Y170.987 E48.9429
G1 X28.439 Y170.539 E48.96596
G1 X28.09 Y169.707 E49.00797
G1 X27.841 Y168.95 E49.04508
G1 X27.706 Y168.476 E49.06803
G1 X27.49 Y167.567 E49.11154
G1 X27.384 Y166.903 E49.14285
G1 X27.303 Y166.258 E49.17312
G1 X27.223 Y165.143 E49.22517
G1 X27.212 Y164.46 E49.25698
G1 X27.214 Y70.604 E53.6273
G1 X27.223 Y69.924 E53.65897
G1 X27.258 Y69.207 E53.6924
G1 X27.305 Y68.646 E53.71861
G1 X27.425 Y67.716 E53.76228
G1 X27.606 Y66.879 E53.80215
G1 X27.739 Y66.368 E53.82674
G1 X28.015 Y65.471 E53.87044
G1 X28.344 Y64.66 E53.91119
G1 X28.569 Y64.164 E53.93655
G1 X28.996 Y63.328 E53.98026
G1 X29.485 Y62.548 E54.02313
G1 X29.801 Y62.09 E54.04904
G1 X30.368 Y61.343 E54.09271
G1 X30.972 Y60.676 E54.13461
G1 X31.343 Y60.301 E54.15917
G1 X32.032 Y59.663 E54.2029
G1 X32.736 Y59.116 E54.24441
G1 X33.183 Y58.799 E54.26993
G1 X33.942 Y58.309 E54.31199
G0 F6000 X34.159 Y58.645
G1 F1200 X34.92 Y58.242 E54.35209
G1 X35.392 Y58.017 E54.37644
G1 X36.224 Y57.664 E54.41852
G1 X37.061 Y57.393 E54.45949
G1 X37.567 Y57.253 E54.48394
G1 X38.447 Y57.051 E54.52598
G1 X39.321 Y56.93 E54.56706
G1 X39.836 Y56.881 E54.59115
G1 X40.649 Y56.836 E54.62907
G1 X41.451 Y56.824 E54.66642
G1 X193.463 Y56.821 E61.74473
G1 X194.389 Y56.833 E61.78785
G1 X195.478 Y56.907 E61.83868
G1 X195.93 Y56.962 E61.85988
G1 X196.821 Y57.11 E61.90194
G1 X197.346 Y57.237 E61.92709
G1 X197.811 Y57.362 E61.94951
G1 X198.672 Y57.635 E61.99157
G1 X199.398 Y57.933 E62.02811
G1 X199.902 Y58.163 E62.05391
G1 X200.706 Y58.574 E62.09596
G1 X201.483 Y59.062 E62.13868
G1 X201.885 Y59.341 E62.16146
G1 X202.603 Y59.889 E62.20352
G1 X203.202 Y60.43 E62.24111
G1 X203.573 Y60.793 E62.26528
G1 X204.19 Y61.453 E62.30735
G1 X204.743 Y62.159 E62.3491
G1 X205.067 Y62.613 E62.37508
G1 X205.558 Y63.37 E62.41709
G1 X205.98 Y64.166 E62.45904
G1 X206.184 Y64.596 E62.4812
G1 X206.534 Y65.428 E62.52323
G1 X206.772 Y66.155 E62.55885
G1 X206.904 Y66.615 E62.58114
G1 X207.115 Y67.493 E62.62319
G1 X207.219 Y68.143 E62.65384
G1 X207.298 Y68.765 E62.68303
G1 X207.377 Y69.859 E62.73411
G1 X207.388 Y70.53 E62.76536
G1 X207.386 Y164.391 E67.13592
G1 X207.377 Y165.056 E67.16688
G1 X207.343 Y165.757 E67.19956
G1 X207.298 Y166.302 E67.22503
G1 X207.184 Y167.198 E67.26709
G1 X207.007 Y168.021 E67.30628
G1 X206.879 Y168.515 E67.33005
G1 X206.614 Y169.379 E67.37213
G1 X206.292 Y170.175 E67.41211
G1 X206.074 Y170.655 E67.43666
G1 X205.665 Y171.46 E67.4787
G1 X205.186 Y172.225 E67.52073
G1 X204.88 Y172.669 E67.54584
G1 X204.335 Y173.389 E67.58789
G1 X203.743 Y174.043 E67.62897
G1 X203.385 Y174.406 E67.65271
G1 X202.723 Y175.021 E67.69478
G1 X202.032 Y175.558 E67.73553
G1 X201.6 Y175.865 E67.76021
G1 X200.841 Y176.355 E67.80228
G1 X200.073 Y176.762 E67.84275
G1 X199.6 Y176.987 E67.86714
G1 X198.768 Y177.338 E67.90919
G1 X197.943 Y177.605 E67.94956
G1 X197.438 Y177.745 E67.97396
G1 X196.558 Y177.948 E68.01602
G1 X195.679 Y178.07 E68.05734
G1 X195.164 Y178.119 E68.08143
G1 X194.351 Y178.164 E68.11934
G1 X193.549 Y178.176 E68.15669
G1 X41.537 Y178.179 E75.23501
G1 X40.61 Y178.167 E75.27818
G1 X39.51 Y178.092 E75.32952
G1 X39.062 Y178.037 E75.35053
G1 X38.171 Y177.887 E75.3926
G1 X37.682 Y177.77 E75.41602
G1 X37.216 Y177.646 E75.43847
G1 X36.355 Y177.375 E75.4805
G1 X35.603 Y177.068 E75.51832
G1 X35.097 Y176.837 E75.54422
G1 X34.293 Y176.426 E75.58627
G1 X33.517 Y175.938 E75.62896
G1 X33.115 Y175.659 E75.65174
G1 X32.397 Y175.111 E75.6938
G1 X31.798 Y174.57 E75.73138
G1 X31.427 Y174.207 E75.75555
G1 X30.81 Y173.547 E75.79762
G1 X30.26 Y172.845 E75.83915
G1 X29.935 Y172.39 E75.86518
G1 X29.443 Y171.632 E75.90726
G1 X29.012 Y170.816 E75.95023
G1 X28.808 Y170.384 E75.97248
G1 X28.459 Y169.552 E76.01449
G1 X28.226 Y168.84 E76.04938
G1 X28.095 Y168.383 E76.07151
G1 X27.885 Y167.504 E76.11359
G1 X27.781 Y166.853 E76.14429
G1 X27.702 Y166.229 E76.17358
G1 X27.623 Y165.136 E76.22461
G1 X27.612 Y164.46 E76.25609
G1 X27.614 Y70.609 E80.62618
G1 X27.623 Y69.943 E80.6572
G1 X27.657 Y69.24 E80.68997
G1 X27.702 Y68.696 E80.71539
G1 X27.816 Y67.8 E80.75745
G1 X27.993 Y66.979 E80.79655
G1 X28.121 Y66.485 E80.82032
G1 X28.386 Y65.621 E80.8624
G1 X28.708 Y64.825 E80.90238
G1 X28.926 Y64.345 E80.92693
G1 X29.335 Y63.54 E80.96897
G1 X29.814 Y62.775 E81.011
G1 X30.12 Y62.331 E81.03611
G1 X30.665 Y61.611 E81.07816
G1 X31.257 Y60.957 E81.11924
G1 X31.615 Y60.594 E81.14298
G1 X32.277 Y59.979 E81.18505
G1 X32.968 Y59.442 E81.2258
G1 X33.4 Y59.135 E81.25048
G1 X34.159 Y58.645 E81.29255
G1 F1500 E74.79255
;MESH:ProtoMIDDS_v1 - ProtoMIDDS_Base^ProtoMIDDS_v1-1.STL
G0 F6000 X49.055 Y98.812
G0 X68.314 Y99.551
G0 X68.963 Y99.642
G0 X69.427 Y99.847
G0 X69.807 Y100.16
G0 X70.178 Y100.7
G0 X76.861 Y114.068
G0 X76.832 Y122.209
G0 X66.579 Y102.814
G0 X63.444 Y105.056
G0 X64.304 Y106.912
G0 X63.632 Y107.17
G0 X62.895 Y107.263
G0 X57.123 Y107.253
G0 X56.605 Y105.217
G0 X56.601 Y105.243
;TYPE:WALL-INNER
G1 F1500 E81.29255
G1 F1200 X56.825 Y105.539 E81.30983
G1 X56.908 Y105.734 E81.3197
G1 X56.951 Y106.027 E81.33349
G1 X56.951 Y107.425 E81.39858
G1 X62.906 Y107.424 E81.67587
G1 X63.67 Y107.328 E81.71173
G1 X64.317 Y107.094 E81.74377
G1 X64.521 Y106.96 E81.75513
G1 X63.691 Y105.298 E81.84163
G1 X63.602 Y105.028 E81.85487
G1 X63.615 Y104.614 E81.87416
G1 X63.708 Y104.373 E81.88619
G1 X63.993 Y104.029 E81.90699
G1 X65.93 Y103.063 E82.00778
G1 X66.187 Y102.975 E82.02043
G1 X66.55 Y102.972 E82.03733
G1 X66.734 Y103.023 E82.04622
G1 X67.027 Y103.181 E82.06172
G1 X67.272 Y103.511 E82.08086
G1 X77.023 Y123.018 E83.09635
G1 X77.023 Y114.029 E83.51491
G1 X70.317 Y100.619 E84.21306
G1 X69.927 Y100.051 E84.24515
G1 X69.512 Y99.709 E84.27019
G1 X69.009 Y99.486 E84.29581
G1 X68.326 Y99.39 E84.32792
G1 X49.081 Y99.394 E85.22405
G1 X47.957 Y99.505 E85.27664
G1 X47.022 Y99.79 E85.32216
G1 X46.154 Y100.251 E85.36792
G1 X45.397 Y100.874 E85.41358
G1 X44.768 Y101.639 E85.45969
G1 X44.308 Y102.504 E85.50531
G1 X44.023 Y103.438 E85.55078
G1 X43.913 Y104.561 E85.60332
G1 X43.914 Y109.356 E85.8266
G1 X44.026 Y111.587 E85.93061
G1 X44.334 Y113.622 E86.02645
G1 X44.823 Y115.449 E86.11452
G1 X45.472 Y117.03 E86.1941
G1 X46.197 Y118.221 E86.25902
G1 X46.901 Y118.972 E86.30696
G1 X47.533 Y119.357 E86.34141
G1 X48.036 Y119.46 E86.36532
G1 X54.842 Y119.463 E86.68224
G1 X55.656 Y119.504 E86.72019
G1 X56.538 Y119.701 E86.76227
G1 X57.367 Y120.044 E86.80405
G1 X58.128 Y120.523 E86.84592
G1 X58.801 Y121.132 E86.88818
G1 X59.348 Y121.829 E86.92944
G1 X59.773 Y122.609 E86.9708
G1 X60.066 Y123.477 E87.01346
G1 X60.199 Y124.37 E87.0555
G1 X60.188 Y125.257 E87.0968
G1 X60.024 Y126.13 E87.13817
G1 X59.71 Y126.974 E87.1801
G1 X59.256 Y127.752 E87.22204
G1 X58.675 Y128.437 E87.26387
G1 X58 Y129.014 E87.30521
G1 X57.219 Y129.472 E87.34737
G1 X56.387 Y129.786 E87.38878
G1 X55.505 Y129.959 E87.43063
G1 X54.597 Y129.975 E87.47292
G1 X53.674 Y129.836 E87.51638
G1 X53.305 Y129.631 E87.53604
G1 X53.098 Y129.39 E87.55083
G1 X53.003 Y129.186 E87.56131
G1 X52.951 Y128.866 E87.57641
G1 X52.951 Y127.472 E87.64132
G1 X43.909 Y127.472 E88.06235
G1 X43.888 Y130.417 E88.19949
G1 X43.948 Y131.256 E88.23865
G1 X44.128 Y132.028 E88.27557
G1 X44.425 Y132.755 E88.31213
G1 X44.829 Y133.422 E88.34844
G1 X45.345 Y134.03 E88.38558
G1 X45.94 Y134.542 E88.42213
G1 X46.61 Y134.956 E88.4588
G1 X47.336 Y135.258 E88.49542
G1 X48.104 Y135.443 E88.5322
G1 X48.914 Y135.507 E88.57003
G1 X60.917 Y135.507 E89.12894
G1 X61.945 Y135.397 E89.17709
G1 X62.883 Y135.111 E89.22275
G1 X63.75 Y134.649 E89.26849
G1 X64.508 Y134.026 E89.31418
G1 X65.14 Y133.257 E89.36053
G1 X65.596 Y132.401 E89.40569
G1 X65.882 Y131.462 E89.4514
G1 X65.984 Y130.435 E89.49946
G1 X65.988 Y125.49 E89.72972
G1 X65.873 Y123.242 E89.83453
G1 X65.555 Y121.199 E89.9308
G1 X65.066 Y119.397 E90.01775
G1 X64.431 Y117.859 E90.09523
G1 X63.728 Y116.698 E90.15843
G1 X63.026 Y115.935 E90.2067
G1 X62.398 Y115.546 E90.2411
G1 X61.781 Y115.43 E90.27034
G1 X55.173 Y115.429 E90.57803
G1 X54.341 Y115.406 E90.61679
G1 X53.457 Y115.225 E90.65881
G1 X52.624 Y114.9 E90.70044
G1 X51.85 Y114.431 E90.74258
G1 X51.172 Y113.837 E90.78455
G1 X50.604 Y113.145 E90.82624
G1 X50.16 Y112.354 E90.86848
G1 X49.853 Y111.497 E90.91087
G1 X49.704 Y110.622 E90.9522
G1 X49.706 Y109.705 E90.9949
G1 X49.863 Y108.807 E91.03735
G1 X50.171 Y107.958 E91.0794
G1 X50.621 Y107.173 E91.12153
G1 X51.208 Y106.47 E91.16418
G1 X51.88 Y105.892 E91.20545
G1 X52.659 Y105.429 E91.24765
G1 X53.498 Y105.109 E91.28946
G1 X54.385 Y104.934 E91.33156
G1 X55.305 Y104.918 E91.37441
G1 X56.246 Y105.059 E91.41871
G1 X56.601 Y105.243 E91.43733
G0 F6000 X56.605 Y105.217
G0 X56.965 Y105.461
G0 X57.123 Y107.253
G0 X62.895 Y107.263
G0 X63.632 Y107.17
G0 X64.304 Y106.912
G0 X63.42 Y104.674
G0 X66.095 Y103.093
G0 X66.228 Y103.362
G1 F1200 X66.591 Y103.397 E91.45431
