;FLAVOR:Marlin
;TIME:22268
;Filament used: 21.0843m
;Layer height: 0.28
;MINX:22.371
;MINY:51.561
;MINZ:0.28
;MAXX:212.648
;MAXY:183.435
;MAXZ:8.96
;Generated with Cura_SteamEngine 5.4.0
M140 S100
M105
M190 S100
M104 S250
M105
M109 S250
M82 ;absolute extrusion mode
M201 X500.00 Y500.00 Z100.00 E5000.00 ;Setup machine max acceleration
M203 X500.00 Y500.00 Z10.00 E50.00 ;Setup machine max feedrate
M204 P500.00 R1000.00 T500.00 ;Setup Print/Retract/Travel acceleration
M205 X8.00 Y8.00 Z0.40 E5.00 ;Setup Jerk
M220 S100 ;Reset Feedrate
M221 S100 ;Reset Flowrate

G28 ;Home

G92 E0 ;Reset Extruder
G1 Z2.0 F3000 ;Move Z Axis up
G1 X10.1 Y20 Z0.28 F5000.0 ;Move to start position
G1 X10.1 Y200.0 Z0.28 F1500.0 E15 ;Draw the first line
G1 X10.4 Y200.0 Z0.28 F5000.0 ;Move to side a little
G1 X10.4 Y20 Z0.28 F1500.0 E30 ;Draw the second line
G92 E0 ;Reset Extruder
G1 Z2.0 F3000 ;Move Z Axis up

G92 E0
G92 E0
G1 F1500 E-6.5
;LAYER_COUNT:32
;LAYER:0
M107
G0 F6000 X32.18 Y53.732 Z0.28
;TYPE:SKIRT
G1 F1500 E0
G1 F1200 X34.725 Y52.481 E0.16506
G1 X38.194 Y51.778 E0.37108
G1 X40.029 Y51.599 E0.47839
G1 X194.169 Y51.561 E9.45015
G1 X197.784 Y51.953 E9.66179
G1 X200.432 Y52.579 E9.82017
G1 X203.543 Y54.054 E10.02057
G1 X206.355 Y56.069 E10.22192
G1 X208.6 Y58.541 E10.41629
G1 X210.122 Y60.584 E10.56457
G1 X211.746 Y64.057 E10.78773
G1 X212.396 Y67.194 E10.9742
G1 X212.648 Y70.047 E11.1409
G1 X212.516 Y166.97 E16.78233
G1 X212.287 Y168.497 E16.87221
G1 X211.662 Y171.133 E17.02989
G1 X210.213 Y174.238 E17.22933
G1 X208.298 Y176.964 E17.42323
G1 X205.714 Y179.496 E17.6338
G1 X202.756 Y181.299 E17.83544
G1 X200.23 Y182.528 E17.99894
G1 X197.129 Y183.171 E18.18328
G1 X194.169 Y183.435 E18.35625
G1 X39.22 Y183.332 E27.37509
G1 X36.745 Y182.96 E27.52077
G1 X34.505 Y182.393 E27.65526
G1 X31.451 Y180.935 E27.85224
G1 X28.803 Y179.038 E28.04183
G1 X26.263 Y176.482 E28.25157
G1 X24.254 Y173.081 E28.48149
G1 X23.373 Y171.189 E28.60296
G1 X22.531 Y167.996 E28.79517
G1 X22.389 Y165.995 E28.91193
G1 X22.371 Y69.673 E34.51837
G1 X22.807 Y66.026 E34.73216
G1 X23.334 Y63.879 E34.86084
G1 X24.811 Y60.702 E35.06476
G1 X26.734 Y58.009 E35.25737
G1 X29.217 Y55.553 E35.46065
G1 X32.18 Y53.732 E35.66308
G0 F6000 X32.401 Y54.181
G1 F1200 X34.889 Y52.958 E35.82444
G1 X38.243 Y52.276 E36.02366
G1 X40.078 Y52.097 E36.13097
G1 X194.169 Y52.061 E45.09987
G1 X197.669 Y52.44 E45.30478
G1 X200.267 Y53.054 E45.46017
G1 X203.291 Y54.488 E45.65497
G1 X206.02 Y56.443 E45.85036
G1 X208.199 Y58.84 E46.03891
G1 X209.691 Y60.842 E46.18424
G1 X211.267 Y64.214 E46.40088
G1 X211.906 Y67.296 E46.58409
G1 X212.148 Y70.046 E46.74477
G1 X212.021 Y166.896 E52.38195
G1 X211.8 Y168.382 E52.4694
G1 X211.187 Y170.969 E52.62414
G1 X209.777 Y173.989 E52.81814
G1 X207.916 Y176.638 E53.00657
G1 X205.407 Y179.097 E53.21105
G1 X202.537 Y180.849 E53.40676
G1 X200.067 Y182.051 E53.56665
G1 X197.028 Y182.681 E53.7473
G1 X194.169 Y182.935 E53.91436
G1 X39.294 Y182.837 E62.9289
G1 X36.868 Y182.475 E63.07167
G1 X34.672 Y181.919 E63.20352
G1 X31.706 Y180.503 E63.39482
G1 X29.13 Y178.658 E63.57925
G1 X26.662 Y176.174 E63.78306
G1 X24.707 Y172.87 E64.00652
G1 X23.846 Y171.022 E64.12518
G1 X23.027 Y167.913 E64.31231
G1 X22.888 Y165.96 E64.42628
G1 X22.871 Y69.673 E70.03068
G1 X23.293 Y66.145 E70.2375
G1 X23.809 Y64.043 E70.36348
G1 X25.245 Y60.955 E70.5617
G1 X27.115 Y58.335 E70.74905
G1 X29.527 Y55.949 E70.94653
G1 X32.401 Y54.181 E71.14293
G0 F6000 X32.622 Y54.63
G1 F1200 X35.053 Y53.435 E71.3006
G1 X38.292 Y52.774 E71.49301
G1 X40.127 Y52.595 E71.60032
G1 X194.169 Y52.561 E80.56638
G1 X197.554 Y52.927 E80.76455
G1 X200.102 Y53.529 E80.91694
G1 X203.039 Y54.922 E81.10614
G1 X205.682 Y56.816 E81.2954
G1 X207.798 Y59.139 E81.47829
G1 X209.26 Y61.1 E81.62067
G1 X210.789 Y64.372 E81.83088
G1 X211.416 Y67.397 E82.01069
G1 X211.648 Y70.045 E82.16541
G1 X211.526 Y166.822 E87.79834
G1 X211.305 Y168.308 E87.88579
G1 X210.713 Y170.803 E88.03504
G1 X209.343 Y173.738 E88.22357
G1 X207.534 Y176.312 E88.40669
G1 X205.099 Y178.698 E88.60512
G1 X202.318 Y180.399 E88.79487
G1 X199.904 Y181.574 E88.95113
G1 X196.927 Y182.191 E89.12809
G1 X194.169 Y182.435 E89.28925
G1 X39.367 Y182.342 E98.29954
G1 X36.991 Y181.99 E98.43934
G1 X34.839 Y181.445 E98.56856
G1 X31.965 Y180.073 E98.75392
G1 X29.453 Y178.274 E98.93376
G1 X27.061 Y175.866 E99.13132
G1 X25.16 Y172.659 E99.34831
G1 X24.319 Y170.855 E99.46416
G1 X23.523 Y167.83 E99.64623
G1 X23.387 Y165.924 E99.75745
G1 X23.371 Y69.673 E105.35976
G1 X23.779 Y66.264 E105.5596
G1 X24.284 Y64.207 E105.68288
G1 X25.677 Y61.211 E105.87519
G1 X27.499 Y58.659 E106.05771
G1 X29.837 Y56.345 E106.24917
G1 X32.622 Y54.63 E106.43954
G0 F6000 X32.843 Y55.079
G1 F1200 X35.217 Y53.912 E106.59352
G1 X38.341 Y53.272 E106.77913
G1 X40.176 Y53.093 E106.88644
G1 X194.169 Y53.061 E115.84964
G1 X197.439 Y53.414 E116.04107
G1 X199.937 Y54.004 E116.19047
G1 X202.787 Y55.356 E116.37408
G1 X205.344 Y57.189 E116.5572
G1 X207.428 Y59.476 E116.73729
G1 X208.827 Y61.356 E116.87369
G1 X210.311 Y64.53 E117.07763
G1 X210.926 Y67.498 E117.25405
G1 X211.148 Y70.044 E117.4028
G1 X211.026 Y166.821 E123.03574
G1 X210.819 Y168.193 E123.1165
G1 X210.239 Y170.637 E123.2627
G1 X208.91 Y173.484 E123.44558
G1 X207.15 Y175.988 E123.62372
G1 X204.791 Y178.3 E123.81598
G1 X202.057 Y179.972 E124.00251
G1 X199.743 Y181.096 E124.15225
G1 X196.825 Y181.701 E124.3257
G1 X194.169 Y181.935 E124.48089
G1 X39.367 Y181.842 E133.49118
G1 X37.114 Y181.505 E133.62378
G1 X35.006 Y180.971 E133.75035
G1 X32.219 Y179.641 E133.93009
G1 X29.78 Y177.894 E134.10472
G1 X27.459 Y175.558 E134.29639
G1 X25.613 Y172.448 E134.50689
G1 X24.792 Y170.688 E134.61993
G1 X24.019 Y167.747 E134.79693
G1 X23.886 Y165.888 E134.90541
G1 X23.871 Y69.673 E140.50562
G1 X24.265 Y66.383 E140.69849
G1 X24.759 Y64.371 E140.81907
G1 X26.109 Y61.467 E141.00547
G1 X27.883 Y58.983 E141.18314
G1 X30.146 Y56.743 E141.36848
G1 X32.843 Y55.079 E141.55293
G0 F6000 X33.064 Y55.528
G1 F1200 X35.381 Y54.389 E141.7032
G1 X38.39 Y53.77 E141.88201
G1 X40.225 Y53.591 E141.98933
G1 X194.169 Y53.561 E150.94967
G1 X197.324 Y53.901 E151.13437
G1 X199.772 Y54.479 E151.28078
G1 X202.535 Y55.79 E151.45878
G1 X205.009 Y57.564 E151.63598
G1 X207.027 Y59.775 E151.81021
G1 X208.396 Y61.614 E151.94366
G1 X209.833 Y64.688 E152.14116
G1 X210.436 Y67.599 E152.3142
G1 X210.648 Y70.043 E152.45698
G1 X210.531 Y166.747 E158.08567
G1 X210.332 Y168.078 E158.164
G1 X209.764 Y170.473 E158.30727
G1 X208.476 Y173.232 E158.48449
G1 X206.766 Y175.664 E158.65754
G1 X204.481 Y177.904 E158.84378
G1 X201.839 Y179.522 E159.02411
G1 X199.582 Y180.618 E159.17015
G1 X196.723 Y181.211 E159.3401
G1 X194.169 Y181.435 E159.48932
G1 X39.44 Y181.347 E168.49536
G1 X37.237 Y181.02 E168.62499
G1 X35.173 Y180.497 E168.74893
G1 X32.473 Y179.209 E168.92305
G1 X30.107 Y177.514 E169.09245
G1 X27.857 Y175.25 E169.27824
G1 X26.066 Y172.237 E169.48225
G1 X25.265 Y170.521 E169.59248
G1 X24.515 Y167.664 E169.76441
G1 X24.385 Y165.852 E169.87014
G1 X24.371 Y69.673 E175.46827
G1 X24.751 Y66.502 E175.65416
G1 X25.234 Y64.535 E175.77205
G1 X26.543 Y61.72 E175.95274
G1 X28.264 Y59.309 E176.12516
G1 X30.458 Y57.138 E176.30481
G1 X33.064 Y55.528 E176.48311
G0 F6000 X33.285 Y55.977
G1 F1200 X35.545 Y54.866 E176.62969
G1 X38.439 Y54.268 E176.80169
G1 X40.274 Y54.089 E176.90901
G1 X194.169 Y54.061 E185.8665
G1 X197.27 Y54.398 E186.04806
G1 X199.604 Y54.953 E186.1877
G1 X202.283 Y56.224 E186.36029
G1 X204.675 Y57.939 E186.5316
G1 X206.626 Y60.074 E186.69994
G1 X207.965 Y61.872 E186.83043
G1 X209.355 Y64.846 E187.0215
G1 X209.946 Y67.7 E187.19115
G1 X210.148 Y70.042 E187.32797
G1 X210.036 Y166.674 E192.95246
G1 X209.845 Y167.963 E193.02831
G1 X209.289 Y170.309 E193.16864
G1 X208.04 Y172.983 E193.34042
G1 X206.385 Y175.338 E193.50796
G1 X204.17 Y177.508 E193.68844
G1 X201.621 Y179.072 E193.86251
G1 X199.421 Y180.14 E194.00485
G1 X196.621 Y180.721 E194.1713
G1 X194.169 Y180.935 E194.31456
G1 X39.44 Y180.847 E203.3206
G1 X37.36 Y180.535 E203.44302
G1 X35.34 Y180.023 E203.56431
G1 X32.727 Y178.777 E203.73281
G1 X30.434 Y177.134 E203.897
G1 X28.257 Y174.943 E204.07677
G1 X26.519 Y172.025 E204.27446
G1 X25.738 Y170.352 E204.38193
G1 X25.011 Y167.581 E204.54867
G1 X24.884 Y165.816 E204.65167
G1 X24.871 Y69.673 E210.2477
G1 X25.237 Y66.621 E210.42661
G1 X25.709 Y64.699 E210.5418
G1 X26.975 Y61.976 E210.71659
G1 X28.648 Y59.633 E210.88416
G1 X30.77 Y57.533 E211.05793
G1 X33.285 Y55.977 E211.23007
G0 F6000 X33.506 Y56.426
G1 F1200 X35.708 Y55.343 E211.3729
G1 X38.488 Y54.766 E211.53816
G1 X40.323 Y54.587 E211.64547
G1 X194.169 Y54.561 E220.60011
G1 X197.216 Y54.895 E220.77853
G1 X199.435 Y55.426 E220.91133
G1 X202.031 Y56.658 E221.07859
G1 X204.338 Y58.312 E221.24381
G1 X206.225 Y60.373 E221.40646
G1 X207.534 Y62.13 E221.53399
G1 X208.878 Y65.007 E221.71881
G1 X209.448 Y67.743 E221.88148
G1 X209.648 Y70.041 E222.01574
G1 X209.541 Y166.601 E227.63604
G1 X209.35 Y167.89 E227.71189
G1 X208.815 Y170.142 E227.84662
G1 X207.604 Y172.734 E228.01314
G1 X206.004 Y175.012 E228.17517
G1 X203.861 Y177.111 E228.34977
G1 X201.403 Y178.622 E228.5177
G1 X199.26 Y179.662 E228.65635
G1 X196.519 Y180.231 E228.81929
G1 X194.169 Y180.435 E228.95659
G1 X39.514 Y180.352 E237.95832
G1 X37.483 Y180.05 E238.07784
G1 X35.507 Y179.549 E238.19649
G1 X32.981 Y178.345 E238.35936
G1 X30.761 Y176.754 E238.51833
G1 X28.654 Y174.633 E238.69235
G1 X26.972 Y171.813 E238.88347
G1 X26.211 Y170.183 E238.98817
G1 X25.507 Y167.498 E239.14974
G1 X25.383 Y165.78 E239.24999
G1 X25.371 Y69.673 E244.84392
G1 X25.723 Y66.74 E245.01586
G1 X26.184 Y64.863 E245.12836
G1 X27.409 Y62.229 E245.29744
G1 X29.029 Y59.959 E245.45977
G1 X31.082 Y57.928 E245.62785
G1 X33.506 Y56.426 E245.79383
G0 F6000 X33.727 Y56.875
G1 F1200 X35.872 Y55.82 E245.93297
G1 X38.59 Y55.256 E246.09454
G1 X40.371 Y55.085 E246.19868
G1 X194.169 Y55.061 E255.15053
G1 X197.161 Y55.392 E255.32574
G1 X199.267 Y55.9 E255.45184
G1 X201.779 Y57.092 E255.61368
G1 X204.001 Y58.685 E255.77281
G1 X205.856 Y60.711 E255.9327
G1 X207.101 Y62.385 E256.05413
G1 X208.4 Y65.165 E256.23273
G1 X208.958 Y67.845 E256.39207
G1 X209.148 Y70.04 E256.5203
G1 X209.046 Y166.528 E262.13641
G1 X208.855 Y167.817 E262.21226
G1 X208.341 Y169.974 E262.34132
G1 X207.168 Y172.485 E262.50264
G1 X205.622 Y174.686 E262.65919
G1 X203.552 Y176.714 E262.82786
G1 X201.185 Y178.172 E262.98968
G1 X199.096 Y179.186 E263.12483
G1 X196.475 Y179.733 E263.28068
G1 X194.169 Y179.935 E263.41541
G1 X39.514 Y179.852 E272.41714
G1 X37.606 Y179.565 E272.52945
G1 X35.674 Y179.075 E272.64546
G1 X33.235 Y177.913 E272.80271
G1 X31.088 Y176.374 E272.95647
G1 X29.051 Y174.323 E273.12472
G1 X27.425 Y171.601 E273.30927
G1 X26.684 Y170.014 E273.41121
G1 X26.003 Y167.415 E273.5676
G1 X25.882 Y165.744 E273.66511
G1 X25.871 Y69.673 E279.25695
G1 X26.209 Y66.859 E279.42191
G1 X26.659 Y65.027 E279.53172
G1 X27.843 Y62.482 E279.69509
G1 X29.408 Y60.288 E279.85196
G1 X31.395 Y58.323 E280.01461
G1 X33.727 Y56.875 E280.17438
G0 F6000 X33.948 Y57.324
G1 F1200 X36.036 Y56.297 E280.30982
G1 X38.692 Y55.746 E280.46771
G1 X40.418 Y55.583 E280.56862
G1 X194.169 Y55.561 E289.51773
G1 X197.105 Y55.889 E289.68968
G1 X199.099 Y56.374 E289.80913
G1 X201.527 Y57.526 E289.96555
G1 X203.664 Y59.058 E290.1186
G1 X205.487 Y61.049 E290.27572
G1 X206.668 Y62.64 E290.39105
G1 X207.922 Y65.323 E290.56343
G1 X208.468 Y67.947 E290.71943
G1 X208.648 Y70.039 E290.84165
G1 X208.551 Y166.455 E296.45357
G1 X208.36 Y167.744 E296.52941
G1 X207.867 Y169.806 E296.65282
G1 X206.732 Y172.236 E296.80892
G1 X205.24 Y174.36 E296.96
G1 X203.242 Y176.318 E297.12283
G1 X200.967 Y177.722 E297.27843
G1 X198.932 Y178.71 E297.4101
G1 X196.431 Y179.235 E297.55885
G1 X194.169 Y179.435 E297.69102
G1 X39.588 Y179.357 E306.68845
G1 X37.729 Y179.08 E306.79784
G1 X35.841 Y178.601 E306.91122
G1 X33.489 Y177.481 E307.06284
G1 X31.415 Y175.994 E307.21138
G1 X29.449 Y174.015 E307.37375
G1 X27.878 Y171.389 E307.55186
G1 X27.157 Y169.845 E307.65105
G1 X26.499 Y167.332 E307.80225
G1 X26.381 Y165.708 E307.89702
G1 X26.371 Y69.673 E313.48676
G1 X26.695 Y66.978 E313.64475
G1 X27.134 Y65.191 E313.75186
G1 X28.277 Y62.735 E313.90953
G1 X29.789 Y60.614 E314.06114
G1 X31.705 Y58.719 E314.218
G1 X33.948 Y57.324 E314.37174
G0 F6000 X34.169 Y57.773
G1 F1200 X36.2 Y56.774 E314.50348
G1 X38.794 Y56.236 E314.65768
G1 X40.464 Y56.081 E314.7553
G1 X194.169 Y56.061 E323.70174
G1 X196.987 Y56.375 E323.86677
G1 X198.931 Y56.848 E323.98323
G1 X201.275 Y57.96 E324.13423
G1 X203.33 Y59.433 E324.2814
G1 X205.086 Y61.347 E324.43259
G1 X206.235 Y62.895 E324.5448
G1 X207.444 Y65.481 E324.71095
G1 X207.978 Y68.049 E324.86362
G1 X208.148 Y70.039 E324.97987
G1 X208.056 Y166.382 E330.58754
G1 X207.865 Y167.671 E330.66339
G1 X207.393 Y169.639 E330.78118
G1 X206.296 Y171.987 E330.93203
G1 X204.858 Y174.034 E331.07764
G1 X202.934 Y175.92 E331.23445
G1 X200.704 Y177.296 E331.38697
G1 X198.769 Y178.233 E331.51211
G1 X196.387 Y178.737 E331.65382
G1 X194.169 Y178.935 E331.78343
G1 X39.661 Y178.862 E340.77661
G1 X37.852 Y178.595 E340.88304
G1 X36.008 Y178.127 E340.99378
G1 X33.743 Y177.049 E341.13978
G1 X31.742 Y175.614 E341.2831
G1 X29.847 Y173.706 E341.43963
G1 X28.331 Y171.177 E341.61125
G1 X27.63 Y169.676 E341.70767
G1 X26.995 Y167.249 E341.85369
G1 X26.88 Y165.672 E341.94573
G1 X26.871 Y69.673 E347.53337
G1 X27.181 Y67.097 E347.68439
G1 X27.609 Y65.355 E347.7888
G1 X28.711 Y62.988 E347.94077
G1 X30.168 Y60.943 E348.08692
G1 X32.021 Y59.111 E348.23859
G1 X34.169 Y57.773 E348.38588
G0 F6000 X34.39 Y58.222
G1 F1200 X36.367 Y57.249 E348.51414
G1 X38.84 Y56.734 E348.66117
G1 X40.51 Y56.579 E348.75879
G1 X194.169 Y56.561 E357.70255
G1 X196.869 Y56.861 E357.86067
G1 X198.763 Y57.322 E357.97413
G1 X201.023 Y58.394 E358.11972
G1 X202.996 Y59.808 E358.261
G1 X204.685 Y61.645 E358.40625
G1 X205.802 Y63.15 E358.51534
G1 X206.966 Y65.639 E358.67527
G1 X207.488 Y68.151 E358.82461
G1 X207.648 Y70.039 E358.93489
G1 X207.561 Y166.309 E364.53832
G1 X207.37 Y167.598 E364.61416
G1 X206.919 Y169.472 E364.72635
G1 X205.86 Y171.738 E364.87194
G1 X204.476 Y173.708 E365.01207
G1 X202.626 Y175.522 E365.16288
G1 X200.441 Y176.87 E365.31231
G1 X198.606 Y177.757 E365.43094
G1 X196.342 Y178.239 E365.56567
G1 X194.169 Y178.435 E365.69267
G1 X39.733 Y178.367 E374.68165
G1 X37.975 Y178.11 E374.78506
G1 X36.18 Y177.654 E374.89286
G1 X33.993 Y176.614 E375.03381
G1 X32.069 Y175.234 E375.17163
G1 X30.245 Y173.397 E375.32231
G1 X28.784 Y170.965 E375.48744
G1 X28.102 Y169.505 E375.58123
G1 X27.491 Y167.168 E375.72183
G1 X27.379 Y165.636 E375.81124
G1 X27.371 Y69.673 E381.39679
G1 X27.667 Y67.216 E381.54083
G1 X28.084 Y65.519 E381.64255
G1 X29.145 Y63.241 E381.78882
G1 X30.547 Y61.272 E381.92951
G1 X32.335 Y59.504 E382.07586
G1 X34.39 Y58.222 E382.21684
G0 F6000 X34.611 Y58.671
G1 F1200 X36.534 Y57.724 E382.34161
G1 X38.886 Y57.232 E382.48147
G1 X40.556 Y57.077 E382.57909
G1 X194.169 Y57.061 E391.52017
G1 X196.751 Y57.347 E391.67138
G1 X198.595 Y57.796 E391.78184
G1 X200.771 Y58.828 E391.92202
G1 X202.66 Y60.182 E392.0573
G1 X204.283 Y61.943 E392.19669
G1 X205.371 Y63.409 E392.30295
G1 X206.489 Y65.8 E392.45658
G1 X206.99 Y68.194 E392.59894
G1 X207.148 Y70.039 E392.70672
G1 X207.066 Y166.236 E398.30589
G1 X206.875 Y167.525 E398.38174
G1 X206.445 Y169.305 E398.48833
G1 X205.424 Y171.489 E398.62865
G1 X204.094 Y173.382 E398.76331
G1 X202.315 Y175.126 E398.90831
G1 X200.223 Y176.42 E399.05149
G1 X198.443 Y177.28 E399.16655
G1 X196.297 Y177.741 E399.29431
G1 X194.169 Y177.935 E399.41869
G1 X39.805 Y177.872 E408.40348
G1 X38.098 Y177.625 E408.50387
G1 X36.352 Y177.181 E408.60873
G1 X34.243 Y176.179 E408.74464
G1 X32.396 Y174.854 E408.87694
G1 X30.642 Y173.087 E409.02186
G1 X29.237 Y170.754 E409.18038
G1 X28.576 Y169.338 E409.27133
G1 X27.987 Y167.086 E409.40682
G1 X27.878 Y165.599 E409.4936
G1 X27.868 Y69.732 E415.07356
G1 X28.153 Y67.335 E415.21407
G1 X28.559 Y65.683 E415.31308
G1 X29.579 Y63.494 E415.45365
G1 X30.926 Y61.601 E415.58888
G1 X32.649 Y59.897 E415.72992
G1 X34.611 Y58.671 E415.86459
G0 F6000 X34.832 Y59.12
