;FLAVOR:Marlin
;TIME:5333
;Filament used: 4.77692m
;Layer height: 0.28
;MINX:59.217
;MINY:63.652
;MINZ:0.28
;MAXX:179.611
;MAXY:171.419
;MAXZ:13
;Generated with Cura_SteamEngine 5.4.0
M140 S100
M105
M190 S100
M104 S250
M105
M109 S250
M82 ;absolute extrusion mode
M201 X500.00 Y500.00 Z100.00 E5000.00 ;Setup machine max acceleration
M203 X500.00 Y500.00 Z10.00 E50.00 ;Setup machine max feedrate
M204 P500.00 R1000.00 T500.00 ;Setup Print/Retract/Travel acceleration
M205 X8.00 Y8.00 Z0.40 E5.00 ;Setup Jerk
M220 S100 ;Reset Feedrate
M221 S100 ;Reset Flowrate

G28 ;Home

G92 E0 ;Reset Extruder
G1 Z2.0 F3000 ;Move Z Axis up
G1 X10.1 Y20 Z0.28 F5000.0 ;Move to start position
G1 X10.1 Y200.0 Z0.28 F1500.0 E15 ;Draw the first line
G1 X10.4 Y200.0 Z0.28 F5000.0 ;Move to side a little
G1 X10.4 Y20 Z0.28 F1500.0 E30 ;Draw the second line
G92 E0 ;Reset Extruder
G1 Z2.0 F3000 ;Move Z Axis up

G92 E0
G92 E0
G1 F1500 E-6.5
;LAYER_COUNT:29
;LAYER:0
M107
G0 F6000 X156.978 Y69.476 Z0.28
;TYPE:SKIRT
G1 F1500 E0
G1 F1200 X157.513 Y68.448 E0.06745
G1 X158.022 Y67.696 E0.12031
G1 X159.112 Y66.452 E0.21658
G1 X160.018 Y65.664 E0.28647
G1 X161.186 Y64.812 E0.37062
G1 X163.197 Y64.091 E0.49496
G1 X164.599 Y63.723 E0.57933
G1 X169.989 Y63.723 E0.89306
G1 X172.006 Y63.975 E1.01137
G1 X173.203 Y64.32 E1.08388
G1 X174.16 Y64.728 E1.14443
G1 X175.156 Y65.289 E1.21097
G1 X176.641 Y66.328 E1.31646
G1 X177.831 Y67.866 E1.42964
G1 X178.58 Y69.136 E1.51546
G1 X179.053 Y70.258 E1.58633
G1 X179.356 Y71.316 E1.65039
G1 X179.573 Y72.722 E1.7332
G1 X179.611 Y73.468 E1.77667
G1 X179.611 Y164.441 E7.07178
G1 X179.206 Y166.168 E7.17503
G1 X178.9 Y167.016 E7.2275
G1 X177.868 Y168.543 E7.33477
G1 X177.125 Y169.409 E7.40119
G1 X175.588 Y170.496 E7.51076
G1 X174.256 Y171.092 E7.5957
G1 X172.926 Y171.419 E7.67542
G1 X151.087 Y171.418 E8.94656
G1 X148.685 Y170.64 E9.09352
G1 X146.806 Y169.356 E9.22599
G1 X145.33 Y167.56 E9.36129
G1 X144.576 Y165.936 E9.46551
G1 X144.146 Y164.26 E9.56622
G1 X144.146 Y162.167 E9.68805
G1 X144.558 Y160.44 E9.79139
G1 X145.232 Y158.924 E9.88795
G1 X146.589 Y157.193 E10.01598
G1 X150.111 Y154.508 E10.27375
G1 X150.111 Y135.3 E11.39176
G1 X149.58 Y134.945 E11.42894
G1 X148.386 Y133.96 E11.51903
G1 X147.08 Y132.072 E11.65265
G1 X146.273 Y130.027 E11.78061
G1 X146.111 Y127.97 E11.90071
G1 X146.115 Y119.681 E12.38318
G1 X146.463 Y118.108 E12.47695
G1 X146.879 Y116.918 E12.55032
G1 X147.608 Y115.505 E12.64287
G1 X148.297 Y114.541 E12.71183
G1 X149.267 Y113.5 E12.79465
G1 X150.018 Y112.864 E12.85193
G1 X151.125 Y112.057 E12.93167
G1 X151.363 Y111.949 E12.94688
G1 X156.324 Y71.217 E15.33522
G1 X156.978 Y69.476 E15.44347
G0 F6000 X157.422 Y69.707
G1 F1200 X157.957 Y68.679 E15.51092
G1 X158.398 Y68.026 E15.55678
G1 X159.488 Y66.782 E15.65305
G1 X160.313 Y66.068 E15.71656
G1 X161.422 Y65.259 E15.79646
G1 X163.324 Y64.575 E15.91411
G1 X164.665 Y64.223 E15.9948
G1 X169.989 Y64.223 E16.30469
G1 X171.943 Y64.471 E16.41933
G1 X173.007 Y64.78 E16.48382
G1 X173.964 Y65.188 E16.54438
G1 X174.869 Y65.699 E16.60487
G1 X176.292 Y66.694 E16.70594
G1 X177.435 Y68.172 E16.81469
G1 X178.12 Y69.331 E16.89305
G1 X178.572 Y70.396 E16.96039
G1 X178.875 Y71.454 E17.02444
G1 X179.074 Y72.748 E17.10065
G1 X179.111 Y73.468 E17.14261
G1 X179.111 Y164.383 E22.43434
G1 X178.736 Y165.998 E22.53084
G1 X178.451 Y166.787 E22.57967
G1 X177.489 Y168.217 E22.67999
G1 X176.786 Y169.036 E22.74281
G1 X175.337 Y170.061 E22.84612
G1 X174.098 Y170.615 E22.92511
G1 X172.863 Y170.919 E22.99914
G1 X151.167 Y170.918 E24.26196
G1 X148.907 Y170.186 E24.40023
G1 X147.145 Y168.982 E24.52445
G1 X145.758 Y167.294 E24.65161
G1 X145.048 Y165.764 E24.74979
G1 X144.646 Y164.198 E24.84389
G1 X144.646 Y162.224 E24.95879
G1 X145.033 Y160.603 E25.05579
G1 X145.664 Y159.183 E25.14624
G1 X146.942 Y157.553 E25.2668
G1 X150.611 Y154.756 E25.53533
G1 X150.611 Y135.032 E26.68337
G1 X149.898 Y134.559 E26.73317
G1 X148.756 Y133.617 E26.81934
G1 X147.525 Y131.837 E26.9453
G1 X146.765 Y129.912 E27.06577
G1 X146.611 Y127.97 E27.17915
G1 X146.615 Y119.734 E27.65853
G1 X146.935 Y118.273 E27.74559
G1 X147.351 Y117.083 E27.81896
G1 X148.016 Y115.794 E27.90338
G1 X148.664 Y114.881 E27.96855
G1 X149.591 Y113.881 E28.04792
G1 X150.313 Y113.268 E28.10304
G1 X151.42 Y112.461 E28.18278
G1 X151.822 Y112.313 E28.20772
G1 X156.813 Y71.337 E30.61036
G1 X157.422 Y69.707 E30.71164
G0 F6000 X157.866 Y69.937
G1 F1200 X158.373 Y68.957 E30.77586
G1 X158.774 Y68.356 E30.81792
G1 X159.864 Y67.112 E30.91419
G1 X160.608 Y66.472 E30.97131
G1 X161.661 Y65.704 E31.04717
G1 X163.451 Y65.059 E31.15791
G1 X164.731 Y64.723 E31.23494
G1 X169.989 Y64.723 E31.54098
G1 X171.805 Y64.952 E31.64752
G1 X172.811 Y65.24 E31.70843
G1 X173.768 Y65.648 E31.76898
G1 X174.583 Y66.109 E31.82348
G1 X175.942 Y67.059 E31.91999
G1 X177.039 Y68.478 E32.02439
G1 X177.66 Y69.528 E32.09539
G1 X178.091 Y70.534 E32.1591
G1 X178.394 Y71.592 E32.22315
G1 X178.575 Y72.774 E32.29275
G1 X178.611 Y73.468 E32.3332
G1 X178.611 Y164.326 E37.62161
G1 X178.249 Y165.885 E37.71477
G1 X178.002 Y166.559 E37.75655
G1 X177.109 Y167.892 E37.84994
G1 X176.447 Y168.664 E37.90913
G1 X175.086 Y169.626 E38.00614
G1 X173.939 Y170.139 E38.07928
G1 X172.801 Y170.419 E38.14749
G1 X151.247 Y170.418 E39.40204
G1 X149.129 Y169.732 E39.53163
G1 X147.484 Y168.608 E39.64759
G1 X146.185 Y167.027 E39.76669
G1 X145.52 Y165.595 E39.85859
G1 X145.146 Y164.136 E39.94626
G1 X145.146 Y162.281 E40.05423
G1 X145.508 Y160.766 E40.14489
G1 X146.096 Y159.442 E40.22921
G1 X147.295 Y157.913 E40.34231
G1 X151.111 Y155.004 E40.6216
G1 X151.111 Y134.762 E41.79979
G1 X150.216 Y134.173 E41.86215
G1 X149.126 Y133.274 E41.94439
G1 X147.97 Y131.602 E42.0627
G1 X147.257 Y129.796 E42.17572
G1 X147.111 Y127.97 E42.28234
G1 X147.115 Y119.79 E42.75846
G1 X147.408 Y118.436 E42.83909
G1 X147.796 Y117.311 E42.90836
G1 X148.425 Y116.082 E42.98872
G1 X149.032 Y115.22 E43.05008
G1 X149.915 Y114.262 E43.12592
G1 X150.608 Y113.672 E43.17889
G1 X151.66 Y112.905 E43.25467
G1 X152.281 Y112.677 E43.29317
G1 X157.301 Y71.459 E45.71
G1 X157.866 Y69.937 E45.8045
G0 F6000 X158.311 Y70.166
G1 F1200 X158.791 Y69.232 E45.86562
G1 X159.15 Y68.686 E45.90366
G1 X160.24 Y67.442 E45.99993
G1 X160.903 Y66.876 E46.05067
G1 X161.899 Y66.149 E46.12244
G1 X163.578 Y65.543 E46.22634
G1 X164.797 Y65.223 E46.29969
G1 X169.989 Y65.223 E46.60189
G1 X171.667 Y65.433 E46.70032
G1 X172.673 Y65.721 E46.76123
G1 X173.57 Y66.107 E46.81807
G1 X174.335 Y66.543 E46.86932
G1 X175.591 Y67.423 E46.95859
G1 X176.643 Y68.784 E47.05871
G1 X177.201 Y69.727 E47.12249
G1 X177.61 Y70.672 E47.18242
G1 X177.913 Y71.73 E47.24648
G1 X178.076 Y72.8 E47.30948
G1 X178.111 Y73.468 E47.34841
G1 X178.111 Y164.27 E52.63356
G1 X177.78 Y165.713 E52.71973
G1 X177.554 Y166.33 E52.75798
G1 X176.73 Y167.566 E52.84444
G1 X176.108 Y168.291 E52.90004
G1 X174.835 Y169.191 E52.99079
G1 X173.78 Y169.663 E53.05806
G1 X172.739 Y169.919 E53.12045
G1 X151.327 Y169.918 E54.36674
G1 X149.351 Y169.278 E54.48764
G1 X147.823 Y168.234 E54.59536
G1 X146.614 Y166.763 E54.70618
G1 X145.991 Y165.421 E54.7923
G1 X145.646 Y164.074 E54.87323
G1 X145.646 Y162.338 E54.97428
G1 X145.983 Y160.929 E55.0586
G1 X146.528 Y159.702 E55.13675
G1 X147.649 Y158.272 E55.24251
G1 X151.611 Y155.252 E55.53247
G1 X151.611 Y134.492 E56.74081
G1 X150.534 Y133.787 E56.81574
G1 X149.496 Y132.931 E56.89405
G1 X148.415 Y131.367 E57.00471
G1 X147.749 Y129.68 E57.11028
G1 X147.611 Y127.97 E57.21013
G1 X147.615 Y119.845 E57.68305
G1 X147.897 Y118.542 E57.76065
G1 X148.242 Y117.537 E57.82249
G1 X148.834 Y116.37 E57.89866
G1 X149.441 Y115.508 E57.96002
G1 X150.24 Y114.642 E58.0286
G1 X150.903 Y114.076 E58.07934
G1 X151.9 Y113.349 E58.15116
G1 X152.74 Y113.041 E58.20324
G1 X157.79 Y71.579 E60.63438
G1 X158.311 Y70.166 E60.72204
G0 F6000 X158.756 Y70.395
G1 F1200 X159.236 Y69.461 E60.78316
G1 X159.567 Y68.962 E60.81801
G1 X160.565 Y67.822 E60.9062
G1 X161.198 Y67.28 E60.95471
G1 X162.137 Y66.594 E61.02239
G1 X163.705 Y66.027 E61.11944
G1 X164.863 Y65.723 E61.18913
G1 X169.989 Y65.723 E61.48749
G1 X171.529 Y65.914 E61.57781
G1 X172.535 Y66.202 E61.63872
G1 X173.323 Y66.542 E61.68867
G1 X174.048 Y66.953 E61.73718
G1 X175.242 Y67.789 E61.82202
G1 X176.247 Y69.09 E61.9177
G1 X176.742 Y69.926 E61.97425
G1 X177.151 Y70.871 E62.03419
G1 X177.432 Y71.866 E62.09437
G1 X177.577 Y72.826 E62.15088
G1 X177.611 Y73.468 E62.1883
G1 X177.611 Y164.212 E67.47007
G1 X177.31 Y165.541 E67.54939
G1 X177.104 Y166.104 E67.58428
G1 X176.351 Y167.24 E67.66361
G1 X175.769 Y167.918 E67.71562
G1 X174.584 Y168.756 E67.8001
G1 X173.621 Y169.187 E67.86151
G1 X172.677 Y169.419 E67.91809
G1 X151.407 Y169.418 E69.15611
G1 X149.573 Y168.824 E69.26832
G1 X148.162 Y167.86 E69.36778
G1 X147.042 Y166.497 E69.47047
G1 X146.463 Y165.249 E69.55054
G1 X146.146 Y164.012 E69.62487
G1 X146.146 Y162.395 E69.71899
G1 X146.458 Y161.092 E69.79697
G1 X146.96 Y159.961 E69.869
G1 X148.002 Y158.632 E69.96729
G1 X152.111 Y155.5 E70.26801
G1 X152.111 Y134.157 E71.51029
G1 X151.836 Y134.048 E71.5275
G1 X150.852 Y133.401 E71.59605
G1 X149.866 Y132.588 E71.67043
G1 X148.86 Y131.132 E71.77344
G1 X148.241 Y129.564 E71.87156
G1 X148.111 Y127.97 E71.96465
G1 X148.115 Y119.9 E72.43437
G1 X148.386 Y118.648 E72.50893
G1 X148.689 Y117.761 E72.56348
G1 X149.243 Y116.658 E72.63533
G1 X149.85 Y115.796 E72.69669
G1 X150.565 Y115.022 E72.75802
G1 X151.198 Y114.48 E72.80653
G1 X152.14 Y113.793 E72.87439
G1 X153.199 Y113.405 E72.94003
G1 X158.278 Y71.701 E75.38536
G1 X158.756 Y70.395 E75.46631
G0 F6000 X159.201 Y70.622
G1 F1200 X159.653 Y69.737 E75.52415
G1 X159.984 Y69.238 E75.559
G1 X160.891 Y68.201 E75.63919
G1 X161.493 Y67.684 E75.68538
G1 X162.376 Y67.039 E75.74903
G1 X163.832 Y66.511 E75.83917
G1 X164.929 Y66.223 E75.90519
G1 X169.989 Y66.223 E76.19971
G1 X171.391 Y66.395 E76.28192
G1 X172.397 Y66.683 E76.34283
G1 X173.077 Y66.977 E76.38595
G1 X173.761 Y67.363 E76.43166
G1 X174.893 Y68.155 E76.51208
G1 X175.851 Y69.396 E76.60333
G1 X176.283 Y70.125 E76.65265
G1 X176.692 Y71.07 E76.71259
G1 X176.938 Y71.942 E76.76532
G1 X177.078 Y72.853 E76.81897
G1 X177.111 Y73.468 E76.85482
G1 X177.111 Y164.156 E82.13333
G1 X176.84 Y165.369 E82.20568
G1 X176.653 Y165.881 E82.2374
G1 X175.971 Y166.914 E82.30945
G1 X175.428 Y167.547 E82.35799
G1 X174.333 Y168.321 E82.43604
G1 X173.462 Y168.711 E82.49159
G1 X172.615 Y168.919 E82.54235
G1 X151.487 Y168.918 E83.77212
G1 X149.795 Y168.37 E83.87563
G1 X148.501 Y167.486 E83.96685
G1 X147.469 Y166.23 E84.06147
G1 X146.935 Y165.08 E84.13527
G1 X146.646 Y163.95 E84.20316
G1 X146.646 Y162.453 E84.29029
G1 X146.933 Y161.255 E84.36199
G1 X147.392 Y160.22 E84.42789
G1 X148.355 Y158.992 E84.51873
G1 X152.611 Y155.748 E84.8302
G1 X152.611 Y133.796 E86.10793
G1 X152.111 Y133.63 E86.13859
G1 X151.127 Y132.983 E86.20714
G1 X150.237 Y132.246 E86.27439
G1 X149.305 Y130.897 E86.36983
G1 X148.733 Y129.448 E86.4605
G1 X148.611 Y127.97 E86.54682
G1 X148.615 Y119.955 E87.01334
G1 X148.875 Y118.754 E87.08486
G1 X149.136 Y117.985 E87.13213
G1 X149.69 Y116.882 E87.20397
G1 X150.218 Y116.134 E87.25726
G1 X150.891 Y115.401 E87.31518
G1 X151.493 Y114.884 E87.36137
G1 X152.377 Y114.239 E87.42507
G1 X153.658 Y113.77 E87.50447
G1 X158.767 Y71.819 E89.96428
G1 X159.201 Y70.622 E90.03839
G0 F6000 X159.647 Y70.848
G1 F1200 X160.07 Y70.013 E90.09287
G1 X160.401 Y69.514 E90.12772
G1 X161.218 Y68.58 E90.19995
G1 X161.788 Y68.088 E90.24377
G1 X162.614 Y67.485 E90.3033
G1 X163.959 Y66.995 E90.38662
G1 X164.995 Y66.723 E90.44896
G1 X169.989 Y66.723 E90.73964
G1 X171.253 Y66.876 E90.81375
G1 X172.259 Y67.164 E90.87466
G1 X172.876 Y67.435 E90.91388
G1 X173.474 Y67.773 E90.95386
G1 X174.544 Y68.522 E91.02988
G1 X175.422 Y69.653 E91.11322
G1 X175.824 Y70.324 E91.15875
G1 X176.233 Y71.269 E91.21868
G1 X176.444 Y72.019 E91.26403
G1 X176.579 Y72.88 E91.31476
G1 X176.611 Y73.468 E91.34904
G1 X176.611 Y164.103 E96.62447
G1 X176.37 Y165.198 E96.68973
G1 X176.203 Y165.656 E96.7181
G1 X175.592 Y166.588 E96.78297
G1 X175.089 Y167.174 E96.82792
G1 X174.082 Y167.886 E96.8997
G1 X173.299 Y168.236 E96.94962
G1 X172.556 Y168.419 E96.99416
G1 X151.567 Y168.418 E98.21583
G1 X150.017 Y167.916 E98.31066
G1 X148.84 Y167.112 E98.39363
G1 X147.897 Y165.964 E98.4801
G1 X147.407 Y164.908 E98.54786
G1 X147.146 Y163.889 E98.60909
G1 X147.146 Y162.512 E98.68923
G1 X147.409 Y161.415 E98.75489
G1 X147.824 Y160.478 E98.81454
G1 X148.706 Y159.353 E98.89775
G1 X153.111 Y155.996 E99.22011
G1 X153.111 Y133.435 E100.53328
G1 X152.328 Y133.175 E100.5813
G1 X151.446 Y132.598 E100.64265
G1 X150.608 Y131.904 E100.70598
G1 X149.75 Y130.662 E100.79384
G1 X149.225 Y129.332 E100.87707
G1 X149.111 Y127.97 E100.95662
G1 X149.115 Y120.009 E101.41999
G1 X149.35 Y118.912 E101.48529
G1 X149.584 Y118.207 E101.52853
G1 X150.1 Y117.168 E101.59605
G1 X150.587 Y116.471 E101.64554
G1 X151.218 Y115.78 E101.70001
G1 X151.788 Y115.288 E101.74383
G1 X152.614 Y114.685 E101.80336
G1 X154.117 Y114.135 E101.89652
G1 X159.256 Y71.935 E104.37092
G1 X159.647 Y70.848 E104.43816
G0 F6000 X160.118 Y71.017
G1 F1200 X160.487 Y70.289 E104.48567
G1 X160.818 Y69.79 E104.52052
G1 X161.546 Y68.958 E104.58487
G1 X162.083 Y68.492 E104.62625
G1 X162.851 Y67.931 E104.68161
G1 X164.086 Y67.479 E104.75816
G1 X165.061 Y67.223 E104.81683
G1 X169.989 Y67.223 E105.10366
G1 X171.191 Y67.372 E105.17416
G1 X172.06 Y67.623 E105.22681
G1 X172.631 Y67.871 E105.26305
G1 X173.187 Y68.183 E105.30015
G1 X174.196 Y68.889 E105.37183
G1 X175.027 Y69.96 E105.45073
G1 X175.394 Y70.579 E105.49262
G1 X175.752 Y71.407 E105.54513
G1 X175.95 Y72.098 E105.58696
G1 X176.08 Y72.908 E105.63471
G1 X176.111 Y73.468 E105.66736
G1 X176.111 Y164.048 E110.93959
G1 X175.9 Y165.026 E110.99782
G1 X175.751 Y165.434 E111.02311
G1 X175.213 Y166.262 E111.08058
G1 X174.75 Y166.801 E111.12194
G1 X173.831 Y167.451 E111.18746
G1 X173.14 Y167.76 E111.23151
G1 X172.494 Y167.919 E111.27024
G1 X151.647 Y167.918 E112.48364
G1 X150.239 Y167.462 E112.56978
G1 X149.179 Y166.738 E112.6445
G1 X148.324 Y165.697 E112.72291
G1 X147.879 Y164.739 E112.78439
G1 X147.646 Y163.827 E112.83918
G1 X147.646 Y162.571 E112.91229
G1 X147.885 Y161.575 E112.9719
G1 X148.255 Y160.739 E113.02512
G1 X149.06 Y159.712 E113.10107
G1 X153.611 Y156.244 E113.4341
G1 X153.611 Y133.075 E114.78266
G1 X152.547 Y132.721 E114.84793
G1 X151.765 Y132.213 E114.90221
G1 X150.979 Y131.562 E114.96161
G1 X150.195 Y130.427 E115.0419
G1 X149.717 Y129.216 E115.11768
G1 X149.611 Y127.97 E115.19047
G1 X149.615 Y120.062 E115.65075
G1 X149.825 Y119.07 E115.70977
G1 X150.059 Y118.365 E115.75301
G1 X150.547 Y117.392 E115.81637
G1 X150.957 Y116.807 E115.85795
G1 X151.546 Y116.158 E115.90896
G1 X152.083 Y115.692 E115.95034
G1 X152.851 Y115.131 E116.0057
G1 X154.087 Y114.679 E116.0823
G1 X154.57 Y114.553 E116.11136
G1 X159.745 Y72.055 E118.60323
G1 X160.118 Y71.017 E118.66743
G0 F6000 X160.589 Y71.186
G1 F1200 X160.904 Y70.565 E118.70796
G1 X161.235 Y70.066 E118.74282
G1 X161.874 Y69.335 E118.79933
G1 X162.378 Y68.896 E118.83823
G1 X163.091 Y68.375 E118.88963
G1 X164.213 Y67.963 E118.9592
G1 X165.127 Y67.723 E119.0142
G1 X169.989 Y67.723 E119.2972
G1 X171.054 Y67.853 E119.35965
G1 X171.863 Y68.083 E119.4086
G1 X172.386 Y68.307 E119.44172
G1 X172.942 Y68.619 E119.47883
G1 X173.846 Y69.254 E119.54313
G1 X174.632 Y70.267 E119.61776
G1 X174.936 Y70.779 E119.65241
G1 X175.272 Y71.547 E119.70121
G1 X175.457 Y72.179 E119.73954
G1 X175.581 Y72.936 E119.78418
G1 X175.611 Y73.468 E119.8152
G1 X175.611 Y163.994 E125.08429
G1 X175.411 Y164.921 E125.13948
G1 X175.302 Y165.208 E125.15735
G1 X174.794 Y165.989 E125.21158
G1 X174.412 Y166.428 E125.24545
G1 X173.58 Y167.016 E125.30475
G1 X172.981 Y167.284 E125.34295
G1 X172.432 Y167.419 E125.37586
G1 X151.727 Y167.418 E126.58099
G1 X150.461 Y167.008 E126.65845
G1 X149.518 Y166.364 E126.72492
G1 X148.753 Y165.433 E126.79505
G1 X148.35 Y164.565 E126.85075
G1 X148.146 Y163.766 E126.89875
G1 X148.146 Y162.63 E126.96487
G1 X148.361 Y161.735 E127.01845
G1 X148.686 Y161 E127.06523
G1 X149.414 Y160.071 E127.13392
G1 X154.111 Y156.492 E127.47764
